G21         ; Set units to mm
G90         ; Absolute positioning
M4 S0       ; Enable Laser/Spindle (0 power)


; Pass 0

M08; Enable Air assist

; First Move
G0 X4.49 Y1.21 
; Generated by LaserWeb (lw.raster-to-gcode.js)
; Size       : 0 x 0 mm
; PPI        : x: 300 - y: 300
; PPM        : x: 0.0846666667 - y: 0.0846666667
; Tool diam. : 0.2 mm
; Feed rate  : 6000 mm/min
; Beam range : 0 to 1000
; Beam power : 0 to 100 %
; Options    : trimLine, joinPixel, burnWhite

G1 F6000

G1 X4.49 Y1.21 S0.0000
X5.09 S3.9216
X29.49 S0.0000
X30.09 S3.9216
X36.69 S0.0000
X36.89 S3.9216
X40.49 S0.0000
X40.69 S3.9216
X45.09 S0.0000
X50.69 S3.9216
X55.09 S0.0000
Y29.49 S0.0000
Y30.09 S3.9216
Y36.69 S0.0000
Y36.89 S3.9216
Y40.49 S0.0000
Y40.69 S3.9216
Y45.09 S0.0000
X50.69 S3.9216
X45.09 S0.0000
Y50.69 S3.9216
Y55.09 S0.0000
X43.59 S3.9216
X43.39 S15.6863
X43.19 S23.5294
X42.99 S35.2941
X42.79 S47.0588
X42.59 S50.9804
X42.39 S54.9020
X41.79 S58.8235
X39.99 S62.7451
X35.79 S58.8235
X30.99 S62.7451
X27.19 S58.8235
X26.59 S54.9020
X26.19 S58.8235
X24.99 S54.9020
X24.79 S58.8235
X11.59 S54.9020
X9.79 S58.8235
X9.59 S54.9020
X6.39 S58.8235
X6.19 S54.9020
X5.79 S58.8235
X5.39 S62.7451
X4.79 S58.8235
X3.39 S62.7451
X2.79 S58.8235
X2.39 S54.9020
X2.19 S47.0588
X1.99 S43.1373
X1.79 S39.2157
X1.59 S27.4510
X1.39 S15.6863
X1.29 S3.9216
Y43.59 S3.9216
Y43.39 S15.6863
Y43.19 S23.5294
Y42.99 S35.2941
Y42.79 S47.0588
Y42.59 S50.9804
Y42.39 S54.9020
Y41.79 S58.8235
Y39.99 S62.7451
Y35.79 S58.8235
Y30.99 S62.7451
Y27.19 S58.8235
Y26.59 S54.9020
Y26.19 S58.8235
Y24.99 S54.9020
Y24.79 S58.8235
Y11.59 S54.9020
Y9.79 S58.8235
Y9.59 S54.9020
Y6.39 S58.8235
Y6.19 S54.9020
Y5.79 S58.8235
Y5.39 S62.7451
Y4.79 S58.8235
Y3.39 S62.7451
Y2.79 S58.8235
Y2.39 S54.9020
Y2.19 S47.0588
Y1.99 S43.1373
Y1.79 S39.2157
Y1.59 S27.4510
Y1.39 S15.6863
Y1.29 S3.9216
Y1.21 S3.926
X2.19 S5.365
X5.09 S3.926

M 09; Disable Air assist
M5          ; Disable Laser/Spindle
