G21         ; Set units to mm
G90         ; Absolute positioning
M4 S0       ; Enable Laser/Spindle (0 power)


; Pass 0

M08; Enable Air assist

; First Move
G0 X4.49 Y1.21 
; Generated by LaserWeb (lw.raster-to-gcode.js)
; Size       : 0 x 0 mm
; PPI        : x: 300 - y: 300
; PPM        : x: 0.0846666667 - y: 0.0846666667
; Tool diam. : 0.2 mm
; Feed rate  : 6000 mm/min
; Beam range : 0 to 1000
; Beam power : 0 to 100 %
; Options    : trimLine, joinPixel, burnWhite

G1 F6000

G1 X4.49 Y1.21 S0.0000
X5.09 S3.9216
X29.49 S0.0000
X30.09 S3.9216
X36.69 S0.0000
X36.89 S3.9216
X40.49 S0.0000
X40.69 S3.9216
X45.09 S0.0000
X50.69 S3.9216
X55.09 S0.0000
Y29.49 S0.0000
Y30.09 S3.9216
Y36.69 S0.0000
Y36.89 S3.9216
Y40.49 S0.0000
Y40.69 S3.9216
Y45.09 S0.0000
X50.69 S3.9216
X45.09 S0.0000
Y50.69 S3.9216
Y55.09 S0.0000
X43.59 S3.9216
X43.39 S15.6863
X43.19 S23.5294
X42.99 S35.2941
X42.79 S47.0588
X42.59 S50.9804
X42.39 S54.9020
X41.79 S58.8235
X39.99 S62.7451
X35.79 S58.8235
X30.99 S62.7451
X27.19 S58.8235
X26.59 S54.9020
X26.19 S58.8235
X24.99 S54.9020
X24.79 S58.8235
X11.59 S54.9020
X9.79 S58.8235
X9.59 S54.9020
X6.39 S58.8235
X6.19 S54.9020
X5.79 S58.8235
X5.39 S62.7451
X4.79 S58.8235
X3.39 S62.7451
X2.79 S58.8235
X2.39 S54.9020
X2.19 S47.0588
X1.99 S43.1373
X1.79 S39.2157
X1.59 S27.4510
X1.39 S15.6863
X1.29 S3.9216
Y43.59 S3.9216
Y43.39 S15.6863
Y43.19 S23.5294
Y42.99 S35.2941
Y42.79 S47.0588
Y42.59 S50.9804
Y42.39 S54.9020
Y41.79 S58.8235
Y39.99 S62.7451
Y35.79 S58.8235
Y30.99 S62.7451
Y27.19 S58.8235
Y26.59 S54.9020
Y26.19 S58.8235
Y24.99 S54.9020
Y24.79 S58.8235
Y11.59 S54.9020
Y9.79 S58.8235
Y9.59 S54.9020
Y6.39 S58.8235
Y6.19 S54.9020
Y5.79 S58.8235
Y5.39 S62.7451
Y4.79 S58.8235
Y3.39 S62.7451
Y2.79 S58.8235
Y2.39 S54.9020
Y2.19 S47.0588
Y1.99 S43.1373
Y1.79 S39.2157
Y1.59 S27.4510
Y1.39 S15.6863
Y1.29 S3.9216
Y1.21 S3.926
X2.19 S5.365
X5.09 S3.926



G1 X4.49 Y1.21 S0.0000
X56.09 S3.9216
X80.49 S0.0000
X81.09 S3.9216
X87.69 S0.0000
X87.89 S3.9216
X91.49 S0.0000
X91.69 S3.9216
X96.09 S0.0000
X101.69 S3.9216
X106.09 S0.0000
Y30.49 S0.0000
Y31.09 S3.9216
Y36.69 S0.0000
Y36.89 S3.9216
Y40.49 S0.0000
Y40.69 S3.9216
Y45.09 S0.0000
X96.09 S0.0000
Y50.69 S3.9216
Y55.09 S0.0000
X94.59 S3.9216
X94.39 S15.6863
X94.19 S23.5294
X93.99 S35.2941
X93.79 S47.0588
X93.59 S50.9804
X93.39 S54.9020
X92.79 S58.8235
X90.99 S62.7451
X86.79 S58.8235
X81.99 S62.7451
X78.19 S58.8235
X77.59 S54.9020
X77.19 S58.8235
X75.99 S54.9020
X75.79 S58.8235
X62.59 S54.9020
X60.79 S58.8235
X60.59 S54.9020
X57.39 S58.8235
X57.19 S54.9020
X57.79 S58.8235
X56.39 S62.7451
Y43.59 S3.9216
Y43.39 S15.6863
Y43.19 S23.5294
Y42.99 S35.2941
Y42.79 S47.0588
Y42.59 S50.9804
Y42.39 S54.9020
Y41.79 S58.8235
Y39.99 S62.7451
Y35.79 S58.8235
Y30.99 S62.7451
Y27.19 S58.8235
Y26.59 S54.9020
Y26.19 S58.8235
Y24.99 S54.9020
Y24.79 S58.8235
Y11.59 S54.9020
Y9.79 S58.8235
Y9.59 S54.9020
Y6.39 S58.8235
Y6.19 S54.9020
Y5.79 S58.8235
Y5.39 S62.7451
Y4.79 S58.8235
Y3.39 S62.7451
Y2.79 S58.8235
Y2.39 S54.9020
Y2.19 S47.0588
Y1.99 S43.1373
Y1.79 S39.2157
Y1.59 S27.4510
Y1.39 S15.6863
Y1.29 S3.9216
Y1.21 S3.926




G1 X56.21 Y56.21 S0.0000
X56.09 S3.9216
X80.49 S0.0000
X81.09 S3.9216
X87.69 S0.0000
X87.89 S3.9216
X91.49 S0.0000
X91.69 S3.9216
X96.09 S0.0000
X101.69 S3.9216
X106.09 S0.0000
Y85.49 S0.0000
Y86.09 S3.9216
Y91.69 S0.0000
Y91.89 S3.9216
Y95.49 S0.0000
Y95.69 S3.9216
Y100.09 S0.0000
X96.09 S0.0000
Y105.69 S3.9216
Y110.09 S0.0000
X94.59 S3.9216
X94.39 S15.6863
X94.19 S23.5294
X93.99 S35.2941
X93.79 S47.0588
X93.59 S50.9804
X93.39 S54.9020
X92.79 S58.8235
X90.99 S62.7451
X86.79 S58.8235
X81.99 S62.7451
X78.19 S58.8235
X77.59 S54.9020
X77.19 S58.8235
X75.99 S54.9020
X75.79 S58.8235
X62.59 S54.9020
X60.79 S58.8235
X60.59 S54.9020
X57.39 S58.8235
X57.19 S54.9020
X57.79 S58.8235
X56.39 S62.7451
Y94.59 S3.9216
Y94.39 S15.6863
Y94.19 S23.5294
Y92.99 S35.2941
Y93.79 S47.0588
Y93.59 S50.9804
Y93.39 S54.9020
Y92.79 S58.8235
Y94.99 S62.7451
Y90.79 S58.8235
Y85.99 S62.7451
Y82.19 S58.8235
Y81.59 S54.9020
Y81.19 S58.8235
Y79.99 S54.9020
Y79.79 S58.8235
Y66.59 S54.9020
Y64.79 S58.8235
Y64.59 S54.9020
Y64.39 S58.8235
Y64.19 S54.9020
Y60.79 S58.8235
Y60.39 S62.7451
Y59.79 S58.8235
Y58.39 S62.7451
Y57.79 S58.8235
Y57.39 S54.9020
Y57.19 S47.0588
Y56.99 S43.1373
Y56.79 S39.2157
Y56.59 S27.4510
Y56.39 S15.6863
Y56.29 S3.9216
Y56.21 S3.926


G1 X55.09 Y56.21 S0.0000
Y85.49 S0.0000
Y86.09 S3.9216
Y91.69 S0.0000
Y91.89 S3.9216
Y95.49 S0.0000
Y95.69 S3.9216
Y100.09 S0.0000
X45.09 S0.0000
Y105.69 S3.9216
Y110.09 S0.0000



X44.79 S58.8235
X43.99 S62.7451
X42.19 S58.8235
X39.59 S54.9020
X36.19 S58.8235
X35.99 S54.9020
X30.79 S58.8235
X25.59 S54.9020
X20.79 S58.8235
X17.59 S54.9020
X13.39 S58.8235
X9.19 S54.9020
X6.79 S58.8235
X1.21 S62.7451



Y94.59 S3.9216
Y94.39 S15.6863
Y94.19 S23.5294
Y92.99 S35.2941
Y93.79 S47.0588
Y93.59 S50.9804
Y93.39 S54.9020
Y92.79 S58.8235
Y94.99 S62.7451
Y90.79 S58.8235
Y85.99 S62.7451
Y82.19 S58.8235
Y81.59 S54.9020
Y81.19 S58.8235
Y79.99 S54.9020
Y79.79 S58.8235
Y66.59 S54.9020
Y64.79 S58.8235
Y64.59 S54.9020
Y64.39 S58.8235
Y64.19 S54.9020
Y60.79 S58.8235
Y60.39 S62.7451
Y59.79 S58.8235
Y58.39 S62.7451
Y57.79 S58.8235
Y57.39 S54.9020
Y57.19 S47.0588
Y56.99 S43.1373
Y56.79 S39.2157
Y56.59 S27.4510
Y56.39 S15.6863
Y56.29 S3.9216
Y56.21 S3.926
X5.09 S3.9216
X29.49 S0.0000
X30.09 S3.9216
X36.69 S0.0000
X36.89 S3.9216
X40.49 S0.0000
X40.69 S3.9216
X45.09 S0.0000
X50.69 S3.9216
X55.09 S0.0000
Y56 X0
Y111

X5.09 S3.9216
X15.49 S0.0000
X30.09 S3.9216
X41.69 S0.0000
X45.89 S3.9216
X55.49 S0.0000
X65.69 S3.9216
X75.09 S0.0000
X80.69 S3.9216
X85.09 S0.0000
X92 S0.0000
G03 X110 Y115 J5
G01 X110 
X97
Y115 S3.9216
Y121.37 S0.0000
Y126.87 S3.9216
Y130.18 S0.0000
Y133.64 S3.9216
Y136.97 S0.0000
Y139.35 S3.9216
Y140 S0.0000
Y145.35 S3.9216
Y150 S0.0000

X95.09 S3.9216
X83.69 S0.0000
X75.89 S3.9216
X62.49 S0.0000
X55.69 S3.9216
X37.09 S0.0000
X23.69 S3.9216
X16 S0.0000
X9.36 S3.9216
X6 S0.0000

G03 X1 Y145 J-5
G01
Y145 S3.9216
Y140.37 S0.0000
Y136.87 S3.9216
Y126.18 S0.0000
Y122.64 S3.9216
Y117.97 S0.0000
Y111 S3.9216

M 09; Disable Air assist
M5          ; Disable Laser/Spindle
