G21
G90


; Pass 0

M08; Enable Air assist

; First Move
G0 X133.28 Y27.27 

; Pass Z Height 0mm (Offset: 0mm)
G0 Z0.000
; Generated by LaserWeb (lw.raster-to-gcode.js)
; Size       : 0 x 0 mm
; PPI        : x: 72 - y: 72
; PPM        : x: 0.3527777778 - y: 0.3527777778
; Tool diam. : 0.2 mm
; Feed rate  : 800 mm/min
; Beam range : 0 to 1
; Beam power : 0 to 100 %
; Options    : trimLine, joinPixel, burnWhite

G1 F800

G1 X133.28 Y27.27 S0.0000
X133.38 S0.0039
X133.58 S0.0157
X133.78 S0.0549
X134.18 S0.0941
X134.38 S0.0863
X134.58 S0.0588
X134.78 S0.0314
X134.88 S0.0039
X139.28 S0.0000
X139.38 S0.0078
X139.58 S0.0157
X139.78 S0.0549
X140.58 S0.0941
X140.78 S0.0863
X140.98 S0.0745
X141.08 S0.0353
X151.68 S0.0000
X151.78 S0.0471
X151.98 S0.0863
X152.18 S0.0902
X152.38 S0.0863
X152.58 S0.0588
X152.78 S0.0314
X152.88 S0.0039
X158.28 S0.0000
X158.38 S0.0078
X158.58 S0.0314
X158.78 S0.0588
X158.98 S0.0902
X159.18 S0.0510
X159.28 S0.0039
X161.88 S0.0000
X161.98 S0.0039
X162.18 S0.0078
X162.38 S0.0588
X162.78 S0.0941
X162.98 S0.0667
X163.08 S0.0157
X180.08 S0.0000
X180.18 S0.0039
X180.38 S0.0471
X180.58 S0.0824
X180.78 S0.0902
X180.98 S0.0824
X181.18 S0.0627
X181.28 S0.0353
X194.68 S0.0000
X194.78 S0.0392
X195.18 S0.0941
X195.38 S0.0824
X195.48 S0.0314
X222.08 S0.0000
X222.18 S0.0078
X222.38 S0.0471
X222.58 S0.0784
X222.78 S0.0902
X223.18 S0.0941
X223.38 S0.0902
X223.58 S0.0784
X223.68 S0.0314
X229.28 S0.0000
X229.38 S0.0039
X229.58 S0.0118
X229.78 S0.0627
X230.58 S0.0941
X230.68 S0.0510
X233.08 S0.0000
X233.18 S0.0118
X233.38 S0.0353
X233.58 S0.0627
X234.78 S0.0941
X234.98 S0.0588
X235.08 S0.0078
X238.08 S0.0000
X238.18 S0.0431
X238.58 S0.0941
X238.78 S0.0863
X238.98 S0.0471
X239.18 S0.0196
X239.28 S0.0039
X245.88 S0.0000
X245.98 S0.0510
X246.18 S0.0863
X246.38 S0.0431
X246.58 S0.0157
X246.68 S0.0039
X322.08 S0.0000
X322.18 S0.0510
X324.38 S0.0941
X324.58 S0.0784
X324.78 S0.0549
X324.88 S0.0275
X329.08 S0.0000
X329.18 S0.0353
X329.38 S0.0902
X329.58 S0.0863
X329.78 S0.0706
X329.88 S0.0275
X335.08 S0.0000
X335.18 S0.0392
X335.38 S0.0902
X335.58 S0.0863
X335.78 S0.0706
X335.88 S0.0275
X340.08 S0.0000
X340.18 S0.0627
X340.38 S0.1412
X340.58 S0.2824
X340.78 S0.4549
X340.98 S0.6627
X341.18 S0.7961
X341.38 S0.8980
X341.58 S0.9529
X341.98 S1.0000
X342.18 S0.9373
X342.38 S0.7843
X342.58 S0.6902
X342.78 S0.6235
X342.98 S0.4706
X343.18 S0.3059
X343.38 S0.1216
X343.48 S0.0039
X345.28 S0.0000
X345.38 S0.0157
X345.58 S0.0431
X345.78 S0.0549
X345.98 S0.0627
X346.08 S0.0275
X349.88 S0.0000
X349.98 S0.0157
X350.18 S0.0392
X350.38 S0.0549
X350.58 S0.0667
X350.68 S0.0275
X359.68 S0.0000
X359.78 S0.0118
X359.98 S0.0588
X360.18 S0.0863
X360.38 S0.0941
X360.58 S0.0549
X360.68 S0.0039
X369.88 S0.0000
X369.98 S0.0039
X370.18 S0.0588
X370.98 S0.0941
X371.18 S0.0784
X371.38 S0.0588
X371.48 S0.0235
X381.68 S0.0000
X381.78 S0.0392
X381.98 S0.0941
X382.18 S0.2667
X382.38 S0.4549
X382.58 S0.6824
X382.78 S0.8314
X382.98 S0.9176
X383.18 S0.9647
X383.38 S1.0000
X383.58 S0.9922
X383.78 S0.9373
X383.98 S0.7804
X384.18 S0.6353
X384.38 S0.5137
X384.58 S0.3529
X384.78 S0.1843
X384.88 S0.0824
X386.48 S0.0000
X386.58 S0.0078
X386.78 S0.0588
X386.98 S0.0902
X387.18 S0.0941
X387.38 S0.0588
X387.48 S0.0078
X393.28 S0.0000
X393.38 S0.0706
X393.58 S0.1725
X393.78 S0.2431
X393.98 S0.3137
X394.18 S0.4431
X394.38 S0.5529
X394.58 S0.6235
X394.78 S0.6627
X394.98 S0.6784
X395.38 S0.6824
X395.58 S0.6745
X395.78 S0.6196
X395.98 S0.4588
X396.18 S0.3647
X396.38 S0.3176
X396.58 S0.2549
X396.78 S0.1804
X396.88 S0.0784
X401.28 S0.0000
X401.38 S0.0039
X401.58 S0.0588
X401.98 S0.0941
X402.18 S0.0627
X402.28 S0.0118
X409.48 S0.0000
X409.58 S0.0196
X409.78 S0.0549
X409.98 S0.1529
X410.18 S0.2745
X410.38 S0.3451
X410.58 S0.4157
X410.78 S0.4863
X410.98 S0.5686
X411.18 S0.6549
X411.58 S0.6824
X411.78 S0.5765
X411.98 S0.4745
X412.18 S0.4039
X412.38 S0.3216
X412.58 S0.2196
X412.78 S0.1176
X412.88 S0.0118
X415.48 S0.0000
X415.58 S0.0196
X415.78 S0.0549
X415.98 S0.2000
X416.18 S0.3804
X416.38 S0.4980
X416.58 S0.6196
X416.78 S0.7647
X416.98 S0.8745
X417.18 S0.9373
X417.38 S0.9412
X417.58 S0.9255
X417.78 S0.7961
X417.98 S0.6667
X418.18 S0.5765
X418.38 S0.4549
X418.58 S0.2824
X418.78 S0.1725
X418.98 S0.0941
X419.08 S0.0431
X420.68 S0.0000
X420.78 S0.0039
X420.98 S0.0588
X421.38 S0.0941
X421.58 S0.0667
X421.68 S0.0118
X425.48 S0.0000
X425.58 S0.0039
X425.78 S0.0235
X425.98 S0.0745
X426.18 S0.1569
X426.38 S0.2588
X426.58 S0.3451
X426.78 S0.4314
X426.98 S0.4980
X427.18 S0.5686
X427.38 S0.6471
X427.78 S0.6824
X427.98 S0.6549
X428.18 S0.6157
X428.38 S0.5490
X428.58 S0.4667
X428.78 S0.3412
X428.98 S0.2549
X429.18 S0.2000
X429.38 S0.1059
X429.48 S0.0039
X430.08 Y27.47 S0.0000
X429.98 S0.0078
X429.78 S0.0275
X429.58 S0.1098
X429.38 S0.2118
X429.18 S0.3216
X428.98 S0.4118
X428.78 S0.4510
X428.58 S0.5176
X428.38 S0.6078
X428.18 S0.6667
X427.98 S0.7176
X427.78 S0.7451
X427.38 S0.7686
X427.18 S0.7412
X426.98 S0.6863
X426.78 S0.6314
X426.58 S0.5804
X426.38 S0.5216
X426.18 S0.4549
X425.98 S0.3804
X425.78 S0.3098
X425.58 S0.2392
X425.38 S0.1843
X425.18 S0.1333
X424.98 S0.0745
X424.78 S0.0157
X424.68 S0.0078
X421.88 S0.0000
X421.78 S0.0431
X421.58 S0.1098
X421.38 S0.2549
X420.98 S0.3333
X420.78 S0.2549
X420.58 S0.1412
X420.38 S0.0706
X420.18 S0.0078
X419.78 S0.0039
X419.58 S0.0118
X419.38 S0.0510
X419.18 S0.1098
X418.98 S0.2196
X418.78 S0.3333
X418.58 S0.3922
X418.38 S0.4706
X418.18 S0.6000
X417.98 S0.6902
X417.78 S0.7529
X417.58 S0.8510
X417.38 S0.9451
X417.18 S0.9569
X416.98 S0.9529
X416.78 S0.9059
X416.58 S0.8275
X416.38 S0.7216
X416.18 S0.6314
X415.98 S0.5451
X415.78 S0.4039
X415.58 S0.2667
X415.38 S0.1490
X415.18 S0.0627
X415.08 S0.0157
X413.08 S0.0000
X412.98 S0.0431
X412.78 S0.1059
X412.58 S0.2863
X412.38 S0.4275
X412.18 S0.5020
X411.98 S0.5647
X411.78 S0.6157
X411.58 S0.6902
X411.18 S0.7686
X410.98 S0.7490
X410.78 S0.6824
X410.58 S0.6235
X410.38 S0.5725
X410.18 S0.5176
X409.98 S0.4667
X409.78 S0.3686
X409.58 S0.2627
X409.38 S0.1451
X409.18 S0.0627
X409.08 S0.0157
X402.48 S0.0000
X402.38 S0.0471
X402.18 S0.1137
X401.98 S0.2549
X401.58 S0.3333
X401.38 S0.2235
X401.18 S0.0627
X401.08 S0.0235
X397.88 S0.0000
X397.78 S0.0118
X397.58 S0.0431
X397.38 S0.1176
X397.18 S0.1843
X396.98 S0.2431
X396.78 S0.3176
X396.58 S0.4000
X396.38 S0.4510
X396.18 S0.5020
X395.98 S0.5333
X395.78 S0.6039
X395.58 S0.7176
X395.38 S0.7608
X395.18 S0.7647
X394.98 S0.7686
X394.78 S0.7647
X394.58 S0.7529
X394.38 S0.7216
X394.18 S0.6706
X393.98 S0.5922
X393.78 S0.4980
X393.58 S0.4431
X393.38 S0.3922
X393.18 S0.3059
X392.98 S0.2196
X392.78 S0.1294
X392.58 S0.0667
X392.38 S0.0196
X392.28 S0.0078
X387.68 S0.0000
X387.58 S0.0392
X387.38 S0.0941
X387.18 S0.2392
X386.78 S0.3333
X386.58 S0.2588
X386.38 S0.1373
X386.18 S0.0667
X385.98 S0.0078
X385.58 S0.0039
X385.38 S0.0157
X385.18 S0.0549
X384.98 S0.1176
X384.78 S0.2510
X384.58 S0.4000
X384.38 S0.5255
X384.18 S0.6431
X383.98 S0.7333
X383.78 S0.8392
X383.58 S0.9569
X383.38 S0.9922
X383.18 S1.0000
X382.98 S0.9725
X382.78 S0.9373
X382.58 S0.8745
X382.38 S0.7686
X382.18 S0.6000
X381.98 S0.4588
X381.78 S0.3373
X381.58 S0.2039
X381.38 S0.0784
X381.28 S0.0314
X371.88 S0.0000
X371.78 S0.0392
X371.58 S0.1137
X371.38 S0.2078
X371.18 S0.3059
X370.98 S0.3216
X370.18 S0.3333
X369.98 S0.2118
X369.78 S0.0314
X369.68 S0.0078
X360.88 S0.0000
X360.78 S0.0392
X360.58 S0.0941
X360.38 S0.2353
X360.18 S0.3333
X359.98 S0.3255
X359.78 S0.2353
X359.58 S0.0784
X359.48 S0.0235
X357.48 S0.0000
X357.38 S0.0039
X357.18 S0.0275
X356.98 S0.0784
X356.78 S0.1765
X356.58 S0.2275
X356.38 S0.2627
X356.18 S0.2078
X355.98 S0.1412
X355.78 S0.0745
X355.58 S0.0235
X355.48 S0.0078
X351.08 S0.0000
X350.98 S0.0353
X350.78 S0.1216
X350.58 S0.2118
X350.38 S0.3098
X350.18 S0.3059
X349.98 S0.2745
X349.78 S0.1137
X349.58 S0.0118
X349.48 S0.0039
X346.48 S0.0000
X346.38 S0.0235
X346.18 S0.0667
X345.98 S0.1765
X345.78 S0.3098
X345.58 S0.3059
X345.38 S0.2863
X345.18 S0.2118
X344.98 S0.1255
X344.88 S0.0314
X344.28 S0.0000
X344.18 S0.0078
X343.98 S0.0196
X343.78 S0.0471
X343.58 S0.1098
X343.38 S0.2275
X343.18 S0.3529
X342.98 S0.4902
X342.78 S0.6118
X342.58 S0.7216
X342.38 S0.7725
X342.18 S0.8431
X341.98 S0.9529
X341.58 S1.0000
X341.38 S0.9686
X341.18 S0.9255
X340.98 S0.8510
X340.78 S0.7529
X340.58 S0.6000
X340.38 S0.4706
X340.18 S0.3725
X339.98 S0.2275
X339.78 S0.0667
X339.68 S0.0275
X336.28 S0.0000
X336.18 S0.0196
X335.98 S0.0784
X335.78 S0.1765
X335.58 S0.3020
X335.38 S0.3294
X335.18 S0.3255
X334.98 S0.1882
X334.78 S0.0784
X334.68 S0.0235
X330.28 S0.0000
X330.18 S0.0196
X329.98 S0.0745
X329.78 S0.1765
X329.58 S0.3020
X329.38 S0.3294
X329.18 S0.3255
X328.98 S0.1843
X328.78 S0.0745
X328.68 S0.0235
X326.08 S0.0000
X325.98 S0.0078
X325.78 S0.0431
X325.58 S0.0980
X325.38 S0.1804
X325.18 S0.2314
X324.98 S0.2627
X324.78 S0.2863
X324.58 S0.3059
X324.38 S0.3255
X322.18 S0.3333
X321.98 S0.3020
X321.78 S0.2627
X321.58 S0.2314
X321.38 S0.1882
X321.18 S0.1137
X320.98 S0.0549
X320.88 S0.0118
X246.88 S0.0000
X246.78 S0.0235
X246.58 S0.0784
X246.38 S0.2196
X246.18 S0.2980
X245.98 S0.3294
X245.78 S0.2627
X245.58 S0.1765
X245.38 S0.0745
X245.18 S0.0039
X244.98 S0.0078
X244.78 S0.0157
X244.58 S0.0235
X244.38 S0.0706
X244.18 S0.1294
X243.98 S0.1608
X243.78 S0.1882
X243.58 S0.2000
X243.38 S0.1765
X243.18 S0.1098
X242.98 S0.0588
X242.78 S0.0235
X242.68 S0.0078
X239.88 S0.0000
X239.78 S0.0157
X239.58 S0.0353
X239.38 S0.1216
X239.18 S0.1961
X238.98 S0.2588
X238.78 S0.2980
X238.38 S0.3216
X238.18 S0.3176
X237.98 S0.2667
X237.78 S0.2196
X237.58 S0.1882
X237.38 S0.1294
X237.18 S0.0510
X237.08 S0.0157
X235.08 S0.0000
X234.98 S0.0157
X234.78 S0.1529
X234.58 S0.2627
X234.38 S0.3137
X233.58 S0.3333
X233.38 S0.3137
X233.18 S0.2667
X232.98 S0.1608
X232.78 S0.0784
X232.68 S0.0157
X231.48 S0.0000
X231.38 S0.0078
X231.18 S0.0235
X230.98 S0.1216
X230.78 S0.2510
X230.58 S0.2980
X229.78 S0.3333
X229.58 S0.2431
X229.38 S0.1020
X229.28 S0.0431
X227.88 S0.0000
X227.78 S0.0784
X227.58 S0.1686
X227.38 S0.2078
X227.18 S0.2431
X226.98 S0.2588
X226.58 S0.2667
X226.38 S0.2471
X226.18 S0.2196
X225.98 S0.2118
X225.78 S0.1804
X225.58 S0.0863
X225.38 S0.0275
X225.28 S0.0078
X224.48 S0.0000
X224.38 S0.0078
X224.18 S0.0471
X223.98 S0.1176
X223.78 S0.2314
X223.58 S0.2902
X223.38 S0.3216
X223.18 S0.3294
X222.58 S0.3333
X222.38 S0.3216
X222.18 S0.3020
X221.98 S0.2706
X221.78 S0.1608
X221.58 S0.0471
X221.48 S0.0196
X219.08 S0.0000
X218.98 S0.0078
X218.78 S0.0157
X218.58 S0.0667
X218.38 S0.1137
X218.18 S0.1529
X217.98 S0.1961
X217.78 S0.2510
X217.38 S0.2667
X217.18 S0.2471
X216.98 S0.2235
X216.78 S0.1961
X216.58 S0.1608
X216.38 S0.1020
X216.18 S0.0627
X215.98 S0.0314
X215.88 S0.0157
X214.08 S0.0000
X213.98 S0.0039
X213.78 S0.0118
X213.58 S0.0392
X213.38 S0.0667
X213.18 S0.0902
X212.98 S0.1216
X212.58 S0.1490
X212.38 S0.1529
X211.98 S0.1647
X211.78 S0.1529
X211.18 S0.1490
X210.98 S0.1451
X210.78 S0.1137
X210.58 S0.0902
X210.38 S0.0863
X210.18 S0.0627
X209.98 S0.0314
X209.88 S0.0157
X205.08 S0.0000
X204.98 S0.0039
X204.78 S0.0157
X204.58 S0.0745
X204.38 S0.2000
X204.18 S0.2510
X203.98 S0.2627
X202.58 S0.2667
X202.38 S0.2353
X202.18 S0.1922
X201.98 S0.0941
X201.78 S0.0235
X201.68 S0.0078
X196.48 S0.0000
X196.38 S0.0157
X196.18 S0.0392
X195.98 S0.1216
X195.78 S0.1961
X195.58 S0.2431
X195.38 S0.2863
X195.18 S0.3255
X194.78 S0.3333
X194.58 S0.2941
X194.38 S0.2510
X194.18 S0.1961
X193.98 S0.1451
X193.78 S0.0980
X193.58 S0.0510
X193.48 S0.0039
X191.48 S0.0000
X191.38 S0.0078
X191.18 S0.0471
X190.98 S0.1333
X190.78 S0.2000
X190.58 S0.2588
X190.38 S0.2667
X190.18 S0.2627
X189.98 S0.2314
X189.78 S0.1804
X189.58 S0.1020
X189.38 S0.0471
X189.28 S0.0078
X187.28 S0.0000
X187.18 S0.0824
X186.98 S0.1490
X186.78 S0.1647
X186.58 S0.1843
X186.38 S0.2039
X184.58 S0.2078
X184.38 S0.1804
X184.18 S0.1451
X183.98 S0.1137
X183.78 S0.0784
X183.58 S0.0392
X183.38 S0.0157
X183.28 S0.0039
X181.68 S0.0000
X181.58 S0.0588
X181.38 S0.1333
X181.18 S0.2353
X180.98 S0.3137
X180.78 S0.3255
X180.58 S0.3294
X180.38 S0.3176
X180.18 S0.2275
X179.98 S0.1098
X179.78 S0.0510
X179.68 S0.0039
X177.88 S0.0000
X177.78 S0.0157
X177.58 S0.0588
X177.38 S0.1255
X177.18 S0.2000
X176.98 S0.2353
X175.78 S0.2667
X175.58 S0.2588
X175.38 S0.2471
X175.18 S0.1294
X174.98 S0.0353
X174.88 S0.0118
X173.48 S0.0000
X173.38 S0.0039
X173.18 S0.0078
X172.98 S0.0196
X172.78 S0.0706
X172.58 S0.1412
X172.38 S0.2000
X172.18 S0.2510
X171.98 S0.2588
X171.78 S0.2627
X171.58 S0.2588
X171.38 S0.2431
X171.18 S0.2118
X170.98 S0.2078
X170.78 S0.2000
X170.58 S0.1137
X170.38 S0.0431
X170.28 S0.0118
X169.28 S0.0000
X169.18 S0.0078
X168.98 S0.0353
X168.78 S0.1137
X168.58 S0.1843
X168.38 S0.2471
X167.98 S0.2667
X167.78 S0.2431
X167.58 S0.2039
X167.38 S0.1098
X167.18 S0.0431
X167.08 S0.0118
X164.48 S0.0000
X164.38 S0.0196
X164.18 S0.0784
X163.98 S0.1569
X163.78 S0.2471
X163.18 S0.2667
X162.98 S0.2784
X162.78 S0.3176
X162.38 S0.3333
X162.18 S0.2314
X161.98 S0.0902
X161.88 S0.0392
X160.48 S0.0000
X160.38 S0.0039
X160.18 S0.0157
X159.98 S0.0588
X159.78 S0.1059
X159.58 S0.1608
X159.38 S0.2118
X159.18 S0.2627
X158.98 S0.3020
X158.78 S0.3333
X158.58 S0.3098
X158.38 S0.2784
X158.18 S0.2275
X157.98 S0.1686
X157.78 S0.1020
X157.58 S0.0549
X157.38 S0.0196
X157.28 S0.0078
X153.88 S0.0000
X153.78 S0.0039
X153.58 S0.0196
X153.38 S0.0706
X153.18 S0.1412
X152.98 S0.1961
X152.78 S0.2471
X152.58 S0.2824
X152.38 S0.3098
X152.18 S0.3294
X151.98 S0.3333
X151.78 S0.3294
X151.58 S0.2980
X151.38 S0.2627
X151.18 S0.2314
X150.98 S0.1882
X150.78 S0.1216
X150.58 S0.0706
X150.38 S0.0314
X150.28 S0.0157
X148.48 S0.0000
X148.38 S0.0431
X148.18 S0.0980
X147.98 S0.1843
X147.78 S0.2392
X147.58 S0.2588
X146.58 S0.2667
X146.38 S0.2588
X146.18 S0.2471
X145.98 S0.1765
X145.78 S0.0706
X145.68 S0.0275
X145.08 S0.0000
X144.98 S0.0157
X144.78 S0.0627
X144.58 S0.1412
X144.38 S0.2471
X143.38 S0.2667
X143.18 S0.2627
X142.98 S0.2510
X142.78 S0.1490
X142.58 S0.0118
X142.48 S0.0039
X141.48 S0.0000
X141.38 S0.0745
X141.18 S0.1843
X140.98 S0.2588
X140.78 S0.3176
X140.58 S0.3294
X139.78 S0.3333
X139.58 S0.2235
X139.38 S0.1059
X139.28 S0.0431
X135.88 S0.0000
X135.78 S0.0039
X135.58 S0.0196
X135.38 S0.0745
X135.18 S0.1451
X134.98 S0.1961
X134.78 S0.2431
X134.58 S0.2784
X134.38 S0.3098
X134.18 S0.3294
X133.78 S0.3333
X133.58 S0.3059
X133.38 S0.2745
X133.18 S0.2353
X132.98 S0.1804
X132.78 S0.1020
X132.58 S0.0510
X132.38 S0.0157
X132.28 S0.0039
Y27.67 S0.0000
X132.38 S0.0157
X132.58 S0.0431
X132.78 S0.1529
X132.98 S0.3176
X133.18 S0.5647
X133.38 S0.7176
X133.58 S0.8235
X133.78 S0.8431
X134.38 S0.8471
X134.58 S0.8431
X134.78 S0.8078
X134.98 S0.7569
X135.18 S0.6157
X135.38 S0.4549
X135.58 S0.2275
X135.78 S0.0588
X135.88 S0.0196
X139.28 S0.0000
X139.38 S0.1216
X139.58 S0.3020
X139.78 S0.5882
X140.78 S0.8471
X140.98 S0.8431
X141.18 S0.7255
X141.38 S0.5725
X141.48 S0.2314
X142.48 S0.0000
X142.58 S0.0118
X142.78 S0.0392
X142.98 S0.4667
X143.18 S0.7882
X143.38 S0.8196
X144.38 S0.8314
X144.58 S0.7686
X144.78 S0.4471
X144.98 S0.2000
X145.08 S0.0471
X145.68 S0.0000
X145.78 S0.0863
X145.98 S0.2196
X146.18 S0.5529
X146.38 S0.7765
X146.58 S0.8157
X147.58 S0.8314
X147.78 S0.8118
X147.98 S0.7529
X148.18 S0.5765
X148.38 S0.3098
X148.48 S0.1412
X150.08 S0.0000
X150.18 S0.0039
X150.38 S0.0431
X150.58 S0.1020
X150.78 S0.2235
X150.98 S0.3843
X151.18 S0.5882
X151.38 S0.7216
X151.58 S0.8235
X151.78 S0.8392
X152.38 S0.8471
X152.58 S0.8431
X152.78 S0.8078
X152.98 S0.7608
X153.18 S0.6157
X153.38 S0.4471
X153.58 S0.2196
X153.78 S0.0549
X153.88 S0.0157
X157.28 S0.0000
X157.38 S0.0235
X157.58 S0.0588
X157.78 S0.1765
X157.98 S0.3137
X158.18 S0.5255
X158.38 S0.6941
X158.58 S0.8000
X158.78 S0.8431
X158.98 S0.8471
X159.18 S0.8392
X159.38 S0.8157
X159.58 S0.6627
X159.78 S0.5059
X159.98 S0.3294
X160.18 S0.1804
X160.38 S0.0431
X160.48 S0.0118
X161.88 S0.0000
X161.98 S0.1176
X162.18 S0.2667
X162.38 S0.5961
X162.78 S0.8471
X162.98 S0.8431
X163.18 S0.8353
X163.78 S0.8314
X163.98 S0.7765
X164.18 S0.4863
X164.38 S0.2392
X164.48 S0.0588
X167.08 S0.0000
X167.18 S0.0314
X167.38 S0.1373
X167.58 S0.3490
X167.78 S0.6431
X167.98 S0.7647
X168.38 S0.8314
X168.58 S0.7804
X168.78 S0.5765
X168.98 S0.3529
X169.18 S0.1176
X169.28 S0.0314
X170.28 S0.0000
X170.38 S0.0431
X170.58 S0.1412
X170.78 S0.3569
X170.98 S0.6275
X171.18 S0.6510
X171.38 S0.6667
X171.58 S0.7569
X171.98 S0.8157
X172.18 S0.8078
X172.38 S0.7882
X172.58 S0.6314
X172.78 S0.4431
X172.98 S0.2196
X173.18 S0.0588
X173.38 S0.0275
X173.48 S0.0078
X174.88 S0.0000
X174.98 S0.0392
X175.18 S0.1137
X175.38 S0.4078
X175.58 S0.7765
X175.78 S0.8118
X176.98 S0.8314
X177.18 S0.7412
X177.38 S0.6235
X177.58 S0.3882
X177.78 S0.1922
X177.88 S0.0510
X179.48 S0.0000
X179.58 S0.0039
X179.78 S0.0157
X179.98 S0.1569
X180.18 S0.3333
X180.38 S0.6157
X180.58 S0.8196
X180.78 S0.8392
X180.98 S0.8471
X181.18 S0.8431
X181.38 S0.6588
X181.58 S0.4196
X181.78 S0.1882
X182.08 S0.0039
X183.28 S0.0000
X183.38 S0.0078
X183.58 S0.0510
X183.78 S0.1255
X183.98 S0.2471
X184.18 S0.3569
X184.38 S0.4588
X184.58 S0.5608
X186.38 S0.6510
X186.58 S0.6353
X186.78 S0.5725
X186.98 S0.5176
X187.18 S0.4627
X187.28 S0.2549
X189.28 S0.0000
X189.38 S0.0235
X189.58 S0.1490
X189.78 S0.3255
X189.98 S0.5686
X190.18 S0.7216
X190.38 S0.8196
X190.58 S0.8314
X190.78 S0.8078
X190.98 S0.6275
X191.18 S0.4157
X191.38 S0.1451
X191.58 S0.0275
X191.68 S0.0039
X193.28 S0.0000
X193.38 S0.0039
X193.58 S0.0118
X193.78 S0.1569
X193.98 S0.3059
X194.18 S0.4471
X194.38 S0.6078
X194.58 S0.7843
X194.78 S0.8392
X195.38 S0.8471
X195.58 S0.8353
X195.78 S0.7647
X195.98 S0.6118
X196.18 S0.3843
X196.38 S0.1216
X196.48 S0.0471
X201.68 S0.0000
X201.78 S0.0196
X201.98 S0.0706
X202.18 S0.2980
X202.38 S0.6078
X202.58 S0.7373
X203.98 S0.8314
X204.18 S0.8275
X204.38 S0.7882
X204.58 S0.6275
X204.78 S0.2392
X204.98 S0.0510
X205.08 S0.0078
X209.48 S0.0000
X209.58 S0.0039
X209.78 S0.0078
X209.98 S0.0471
X210.18 S0.0980
X210.38 S0.1961
X210.58 S0.2627
X210.78 S0.2824
X210.98 S0.3490
X211.18 S0.4510
X211.78 S0.4706
X211.98 S0.4824
X212.18 S0.5216
X212.38 S0.5176
X212.58 S0.4784
X212.98 S0.4706
X213.18 S0.3765
X213.38 S0.2863
X213.58 S0.2078
X213.78 S0.1255
X213.98 S0.0392
X214.08 S0.0078
X215.88 S0.0000
X215.98 S0.0431
X216.18 S0.0980
X216.38 S0.1922
X216.58 S0.3216
X216.78 S0.5020
X216.98 S0.6196
X217.18 S0.6980
X217.38 S0.7686
X217.78 S0.8314
X217.98 S0.7804
X218.18 S0.6157
X218.38 S0.4745
X218.58 S0.3529
X218.78 S0.2078
X218.98 S0.0549
X219.18 S0.0235
X219.28 S0.0039
X221.48 S0.0000
X221.58 S0.0588
X221.78 S0.1490
X221.98 S0.5059
X222.18 S0.8314
X222.38 S0.8392
X223.58 S0.8471
X223.78 S0.8392
X223.98 S0.7176
X224.18 S0.3725
X224.38 S0.1490
X224.48 S0.0235
X225.28 S0.0000
X225.38 S0.0196
X225.58 S0.0863
X225.78 S0.2706
X225.98 S0.5608
X226.18 S0.6588
X226.38 S0.6863
X226.58 S0.7686
X226.98 S0.8314
X227.18 S0.8078
X227.38 S0.7569
X227.58 S0.6510
X227.78 S0.5255
X227.88 S0.2471
X229.28 S0.0000
X229.38 S0.1294
X229.58 S0.2980
X229.78 S0.6275
X230.58 S0.8471
X230.78 S0.8275
X230.98 S0.7882
X231.18 S0.3804
X231.38 S0.0745
X231.48 S0.0235
X232.68 S0.0000
X232.78 S0.0471
X232.98 S0.2471
X233.18 S0.4824
X233.38 S0.7569
X233.58 S0.8431
X234.38 S0.8471
X234.58 S0.7843
X234.78 S0.6196
X234.98 S0.3569
X235.08 S0.0392
X236.88 S0.0000
X236.98 S0.0078
X237.18 S0.0471
X237.38 S0.1529
X237.58 S0.4078
X237.78 S0.5843
X237.98 S0.6941
X238.18 S0.7490
X238.38 S0.7922
X238.58 S0.8078
X238.78 S0.8196
X238.98 S0.8314
X239.18 S0.7608
X239.38 S0.6078
X239.58 S0.3765
X239.78 S0.1098
X239.88 S0.0471
X242.68 S0.0000
X242.78 S0.0314
X242.98 S0.0706
X243.18 S0.1882
X243.38 S0.3373
X243.58 S0.5529
X243.78 S0.6275
X243.98 S0.5843
X244.18 S0.4980
X244.38 S0.4000
X244.58 S0.2196
X244.78 S0.0784
X244.98 S0.0510
X245.18 S0.0314
X245.38 S0.0157
X245.58 S0.2392
X245.78 S0.5490
X245.98 S0.7176
X246.18 S0.8471
X246.38 S0.8392
X246.58 S0.6588
X246.78 S0.2431
X246.98 S0.0667
X247.08 S0.0039
X320.88 S0.0000
X320.98 S0.0392
X321.18 S0.1765
X321.38 S0.3608
X321.58 S0.5922
X321.78 S0.7255
X321.98 S0.8275
X322.18 S0.8392
X324.58 S0.8471
X324.78 S0.8431
X324.98 S0.8353
X325.18 S0.8235
X325.38 S0.7216
X325.58 S0.5686
X325.78 S0.3098
X325.98 S0.1333
X326.08 S0.0235
X328.68 S0.0000
X328.78 S0.0706
X328.98 S0.2275
X329.18 S0.5020
X329.38 S0.8235
X329.58 S0.8471
X329.78 S0.7961
X329.98 S0.4902
X330.18 S0.2392
X330.28 S0.0627
X334.68 S0.0000
X334.78 S0.0784
X334.98 S0.2431
X335.18 S0.5137
X335.38 S0.8275
X335.58 S0.8471
X335.78 S0.7922
X335.98 S0.4902
X336.18 S0.2392
X336.28 S0.0627
X339.68 S0.0000
X339.78 S0.0902
X339.98 S0.2118
X340.18 S0.5765
X340.38 S0.8549
X340.58 S0.8784
X340.78 S0.9098
X340.98 S0.9451
X341.18 S0.9647
X341.38 S0.9843
X341.58 S0.9922
X341.98 S1.0000
X342.18 S0.9882
X342.38 S0.9647
X342.58 S0.9490
X342.78 S0.9373
X342.98 S0.9098
X343.18 S0.8824
X343.38 S0.8510
X343.58 S0.7020
X343.78 S0.3490
X343.98 S0.1529
X344.18 S0.0588
X344.28 S0.0235
X344.88 S0.0000
X344.98 S0.0941
X345.18 S0.3882
X345.38 S0.6235
X345.58 S0.8039
X345.78 S0.8431
X345.98 S0.8353
X346.18 S0.4941
X346.38 S0.2078
X346.48 S0.0706
X349.48 S0.0000
X349.58 S0.0078
X349.78 S0.0314
X349.98 S0.3216
X350.18 S0.7725
X350.38 S0.8431
X350.58 S0.8235
X350.78 S0.6078
X350.98 S0.3765
X351.08 S0.1137
X355.48 S0.0000
X355.58 S0.0196
X355.78 S0.0745
X355.98 S0.2275
X356.18 S0.4392
X356.38 S0.6471
X356.58 S0.8196
X356.78 S0.7176
X356.98 S0.5490
X357.18 S0.2510
X357.38 S0.0863
X357.48 S0.0118
X359.48 S0.0000
X359.58 S0.0745
X359.78 S0.2196
X359.98 S0.6157
X360.18 S0.8314
X360.38 S0.8431
X360.58 S0.6196
X360.78 S0.2902
X360.88 S0.1255
X369.68 S0.0000
X369.78 S0.0314
X369.98 S0.0941
X370.18 S0.5412
X371.18 S0.8471
X371.38 S0.8353
X371.58 S0.5961
X371.78 S0.3569
X371.88 S0.1216
X381.28 S0.0000
X381.38 S0.0980
X381.58 S0.2471
X381.78 S0.5529
X381.98 S0.8471
X382.18 S0.8784
X382.38 S0.9098
X382.58 S0.9451
X382.78 S0.9725
X382.98 S0.9843
X383.18 S0.9922
X383.58 S1.0000
X383.78 S0.9882
X383.98 S0.9647
X384.18 S0.9373
X384.38 S0.9176
X384.58 S0.8902
X384.78 S0.8627
X384.98 S0.6078
X385.18 S0.3647
X385.38 S0.1647
X385.58 S0.0431
X385.98 S0.0118
X386.18 S0.0235
X386.38 S0.2078
X386.58 S0.4157
X386.78 S0.6824
X386.98 S0.8431
X387.18 S0.8471
X387.38 S0.6275
X387.58 S0.2863
X387.68 S0.1216
X392.28 S0.0000
X392.38 S0.0196
X392.58 S0.0667
X392.78 S0.2039
X392.98 S0.4078
X393.18 S0.6902
X393.38 S0.8157
X393.58 S0.8588
X393.78 S0.8745
X393.98 S0.8863
X394.18 S0.9059
X394.38 S0.9255
X394.58 S0.9373
X395.58 S0.9451
X395.78 S0.9373
X395.98 S0.9098
X396.18 S0.8941
X396.38 S0.8863
X396.58 S0.8745
X396.78 S0.8627
X396.98 S0.8314
X397.18 S0.7608
X397.38 S0.5804
X397.58 S0.3686
X397.78 S0.1333
X397.88 S0.0431
X401.08 S0.0000
X401.18 S0.0745
X401.38 S0.1843
X401.58 S0.5804
X401.98 S0.8471
X402.18 S0.6627
X402.38 S0.3333
X402.48 S0.1451
X408.88 S0.0000
X408.98 S0.0039
X409.18 S0.0471
X409.38 S0.1961
X409.58 S0.4196
X409.78 S0.7098
X409.98 S0.8235
X410.18 S0.8784
X410.38 S0.8902
X410.58 S0.9020
X410.78 S0.9137
X410.98 S0.9255
X411.18 S0.9412
X411.58 S0.9451
X411.78 S0.9294
X411.98 S0.9098
X412.18 S0.9020
X412.38 S0.8863
X412.58 S0.8706
X412.78 S0.6431
X412.98 S0.3020
X413.08 S0.1294
X414.88 S0.0000
X414.98 S0.0039
X415.18 S0.0471
X415.38 S0.1961
X415.58 S0.4235
X415.78 S0.7137
X415.98 S0.8314
X416.18 S0.8941
X416.38 S0.9137
X416.58 S0.9373
X416.78 S0.9608
X416.98 S0.9804
X417.18 S0.9882
X417.38 S0.9922
X417.58 S0.9882
X417.78 S0.9647
X417.98 S0.9451
X418.18 S0.9294
X418.38 S0.9098
X418.58 S0.8784
X418.78 S0.8627
X418.98 S0.8471
X419.18 S0.6000
X419.38 S0.3373
X419.58 S0.1647
X419.78 S0.0431
X420.18 S0.0118
X420.38 S0.0314
X420.58 S0.2196
X420.78 S0.4392
X420.98 S0.6824
X421.38 S0.8471
X421.58 S0.6588
X421.78 S0.3176
X421.88 S0.1373
X424.68 S0.0000
X424.78 S0.0196
X424.98 S0.0510
X425.18 S0.2314
X425.38 S0.4196
X425.58 S0.5686
X425.78 S0.7020
X425.98 S0.8078
X426.18 S0.8588
X426.38 S0.8745
X426.58 S0.8902
X426.78 S0.9059
X426.98 S0.9176
X427.18 S0.9294
X427.38 S0.9412
X427.78 S0.9451
X427.98 S0.9412
X428.18 S0.9373
X428.38 S0.9255
X428.58 S0.9098
X428.78 S0.8902
X428.98 S0.8745
X429.18 S0.8667
X429.38 S0.7765
X429.58 S0.6667
X429.78 S0.3490
X429.98 S0.0863
X430.08 S0.0314
X430.68 Y27.87 S0.0000
X430.58 S0.0275
X430.38 S0.0980
X430.18 S0.2784
X429.98 S0.3922
X429.78 S0.4510
X429.58 S0.6471
X429.38 S0.8784
X429.18 S0.9490
X425.98 S1.0000
X425.78 S0.9725
X425.58 S0.9020
X425.38 S0.8118
X425.18 S0.7020
X424.98 S0.5569
X424.78 S0.4039
X424.58 S0.2431
X424.38 S0.1137
X424.28 S0.0353
X421.88 S0.0000
X421.78 S0.2745
X421.58 S0.5569
X421.38 S0.8431
X420.98 S1.0000
X420.78 S0.8824
X420.58 S0.7137
X420.38 S0.5216
X420.18 S0.3490
X419.98 S0.3098
X419.78 S0.3137
X419.58 S0.3882
X419.38 S0.5020
X419.18 S0.6431
X418.98 S0.8275
X415.98 S1.0000
X415.78 S0.9765
X415.58 S0.9059
X415.38 S0.6980
X415.18 S0.4627
X414.98 S0.2039
X414.78 S0.0784
X414.68 S0.0039
X413.08 S0.0000
X412.98 S0.2902
X412.78 S0.6078
X412.58 S0.8471
X409.98 S1.0000
X409.78 S0.9725
X409.58 S0.9059
X409.38 S0.6980
X409.18 S0.4863
X408.98 S0.2706
X408.78 S0.1255
X408.68 S0.0039
X402.48 S0.0000
X402.38 S0.2824
X402.18 S0.5725
X401.98 S0.8471
X401.58 S1.0000
X401.38 S0.7529
X401.18 S0.3882
X401.08 S0.1725
X398.28 S0.0000
X398.18 S0.0667
X397.98 S0.1569
X397.78 S0.3176
X397.58 S0.4824
X397.38 S0.6627
X397.18 S0.8157
X396.98 S0.9490
X396.78 S0.9882
X393.38 S1.0000
X393.18 S0.9804
X392.98 S0.8980
X392.78 S0.6902
X392.58 S0.5373
X392.38 S0.4235
X392.18 S0.2510
X391.98 S0.0784
X391.88 S0.0314
X387.68 S0.0000
X387.58 S0.2118
X387.38 S0.4588
X387.18 S0.7882
X386.78 S1.0000
X386.58 S0.8863
X386.38 S0.6980
X386.18 S0.4471
X385.98 S0.2000
X385.78 S0.2196
X385.58 S0.2667
X385.38 S0.3725
X385.18 S0.5059
X384.98 S0.6588
X384.78 S0.8275
X381.78 S1.0000
X381.58 S0.7882
X381.38 S0.5529
X381.18 S0.3373
X380.98 S0.1608
X380.88 S0.0431
X372.08 S0.0000
X371.98 S0.0078
X371.78 S0.2000
X371.58 S0.5725
X371.38 S0.8078
X371.18 S0.9961
X370.18 S1.0000
X369.98 S0.6392
X369.78 S0.1137
X369.68 S0.0353
X360.88 S0.0000
X360.78 S0.2196
X360.58 S0.4824
X360.38 S0.7882
X360.18 S0.9961
X359.98 S0.9882
X359.78 S0.7843
X359.58 S0.4039
X359.48 S0.1804
X357.48 S0.0000
X357.38 S0.0157
X357.18 S0.0980
X356.98 S0.3176
X356.78 S0.7294
X356.58 S0.9176
X356.38 S0.9922
X356.18 S0.8667
X355.98 S0.7137
X355.78 S0.5608
X355.58 S0.4196
X355.38 S0.3020
X355.18 S0.1686
X355.08 S0.0235
X351.48 S0.0000
X351.38 S0.0039
X351.18 S0.0157
X350.98 S0.1961
X350.78 S0.5961
X350.58 S0.8314
X350.38 S0.9843
X350.18 S1.0000
X349.98 S0.9373
X349.78 S0.5059
X349.58 S0.1882
X349.48 S0.0510
X346.48 S0.0000
X346.38 S0.1529
X346.18 S0.4549
X345.98 S0.7294
X345.78 S0.9961
X345.58 S1.0000
X345.38 S0.9725
X345.18 S0.8431
X344.98 S0.6431
X344.78 S0.3569
X344.58 S0.2941
X344.38 S0.3333
X344.18 S0.3725
X343.98 S0.4157
X343.78 S0.4980
X343.58 S0.6510
X343.38 S0.9059
X340.18 S1.0000
X339.98 S0.8039
X339.78 S0.5451
X339.58 S0.3216
X339.38 S0.1294
X339.28 S0.0471
X336.28 S0.0000
X336.18 S0.1059
X335.98 S0.4118
X335.78 S0.6902
X335.58 S0.9529
X335.38 S1.0000
X335.18 S0.9804
X334.98 S0.6941
X334.78 S0.4078
X334.68 S0.1294
X330.28 S0.0000
X330.18 S0.1255
X329.98 S0.4745
X329.78 S0.7451
X329.58 S0.9647
X329.38 S1.0000
X329.18 S0.9765
X328.98 S0.6627
X328.78 S0.3647
X328.68 S0.1137
X326.28 S0.0000
X326.18 S0.0235
X325.98 S0.1020
X325.78 S0.3843
X325.58 S0.6235
X325.38 S0.8118
X325.18 S0.9216
X324.98 S0.9922
X321.98 S1.0000
X321.78 S0.9961
X321.58 S0.9255
X321.38 S0.8196
X321.18 S0.6314
X320.98 S0.3882
X320.78 S0.0863
X320.68 S0.0078
X247.08 S0.0000
X246.98 S0.0118
X246.78 S0.1333
X246.58 S0.3569
X246.38 S0.8078
X245.98 S1.0000
X245.78 S0.9098
X245.58 S0.7922
X245.38 S0.5490
X245.18 S0.3765
X244.98 S0.3882
X244.78 S0.4118
X244.58 S0.4431
X244.38 S0.5529
X244.18 S0.6863
X243.98 S0.7608
X243.78 S0.8196
X243.58 S0.8510
X243.38 S0.8000
X243.18 S0.6431
X242.98 S0.5294
X242.78 S0.4314
X242.58 S0.2353
X242.38 S0.0588
X242.28 S0.0235
X240.28 S0.0000
X240.18 S0.0588
X239.98 S0.1569
X239.78 S0.3098
X239.58 S0.4745
X239.38 S0.6667
X239.18 S0.8157
X238.98 S0.8431
X238.78 S0.7843
X238.58 S0.6431
X238.38 S0.5961
X238.18 S0.5804
X237.98 S0.5961
X237.78 S0.6196
X237.58 S0.6863
X237.38 S0.6471
X237.18 S0.4902
X236.98 S0.3490
X236.78 S0.2157
X236.68 S0.0980
X235.08 S0.0000
X234.98 S0.0275
X234.78 S0.2549
X234.58 S0.4980
X234.38 S0.7529
X234.18 S0.9059
X233.98 S0.9843
X233.38 S1.0000
X233.18 S0.9333
X232.98 S0.7059
X232.78 S0.4196
X232.68 S0.0784
X231.48 S0.0000
X231.38 S0.0510
X231.18 S0.1608
X230.98 S0.5137
X230.78 S0.9608
X230.58 S0.9922
X229.78 S1.0000
X229.58 S0.7412
X229.38 S0.3529
X229.28 S0.1529
X227.88 S0.0000
X227.78 S0.1804
X227.58 S0.4000
X227.38 S0.6627
X227.18 S0.8706
X226.98 S0.9608
X226.58 S1.0000
X226.38 S0.9529
X226.18 S0.8941
X225.98 S0.7843
X225.78 S0.6118
X225.58 S0.2667
X225.38 S0.0627
X225.28 S0.0118
X224.48 S0.0000
X224.38 S0.0196
X224.18 S0.1098
X223.98 S0.2902
X223.78 S0.5843
X223.58 S0.8000
X223.38 S0.9765
X223.18 S0.9961
X221.98 S1.0000
X221.78 S0.5725
X221.58 S0.1137
X221.48 S0.0471
X219.48 S0.0000
X219.38 S0.0588
X219.18 S0.1686
X218.98 S0.2902
X218.78 S0.4157
X218.58 S0.5412
X218.38 S0.6549
X218.18 S0.7412
X217.98 S0.8431
X217.78 S0.9608
X217.38 S1.0000
X217.18 S0.9529
X216.98 S0.9020
X216.78 S0.8471
X216.58 S0.7608
X216.38 S0.6314
X216.18 S0.5333
X215.98 S0.4588
X215.78 S0.2510
X215.58 S0.0471
X215.48 S0.0196
X214.08 S0.0000
X213.98 S0.0118
X213.78 S0.0980
X213.58 S0.3804
X213.38 S0.5490
X213.18 S0.6078
X212.98 S0.6706
X212.58 S0.7373
X212.38 S0.7451
X212.18 S0.7725
X211.98 S0.7765
X211.78 S0.7451
X211.18 S0.7373
X210.98 S0.7255
X210.78 S0.6510
X210.58 S0.6039
X210.38 S0.5882
X210.18 S0.5373
X209.98 S0.4588
X209.78 S0.3765
X209.58 S0.2784
X209.48 S0.1098
X205.08 S0.0000
X204.98 S0.0039
X204.78 S0.0353
X204.58 S0.1765
X204.38 S0.4667
X204.18 S0.6235
X203.98 S0.7176
X203.78 S0.8667
X202.58 S1.0000
X202.38 S0.8275
X202.18 S0.6118
X201.98 S0.2863
X201.78 S0.0510
X201.68 S0.0157
X196.88 S0.0000
X196.78 S0.0627
X196.58 S0.1647
X196.38 S0.3176
X196.18 S0.4824
X195.98 S0.6745
X195.78 S0.8431
X195.58 S0.9529
X194.58 S1.0000
X194.38 S0.9647
X194.18 S0.8392
X193.98 S0.7216
X193.78 S0.6157
X193.58 S0.4980
X193.38 S0.3725
X193.18 S0.1804
X192.98 S0.0275
X192.88 S0.0078
X191.68 S0.0000
X191.58 S0.0275
X191.38 S0.2000
X191.18 S0.4078
X190.98 S0.6745
X190.78 S0.8510
X190.58 S0.9843
X190.38 S1.0000
X190.18 S0.9922
X189.98 S0.9176
X189.78 S0.8078
X189.58 S0.6275
X189.38 S0.3725
X189.28 S0.0588
X187.28 S0.0000
X187.18 S0.3294
X186.98 S0.6157
X186.78 S0.7294
X186.58 S0.8118
X186.38 S0.8588
X184.58 S0.8706
X184.38 S0.8039
X184.18 S0.7294
X183.98 S0.6549
X183.78 S0.5765
X183.58 S0.4784
X183.38 S0.4078
X183.18 S0.3529
X182.98 S0.1922
X182.78 S0.0157
X182.68 S0.0078
X181.88 S0.0000
X181.78 S0.0039
X181.58 S0.2549
X181.38 S0.5765
X181.18 S0.8157
X180.78 S1.0000
X180.58 S0.9961
X180.38 S0.9804
X180.18 S0.8353
X179.98 S0.6392
X179.78 S0.4275
X179.58 S0.2275
X179.48 S0.0824
X177.88 S0.0000
X177.78 S0.0392
X177.58 S0.1412
X177.38 S0.3922
X177.18 S0.7333
X176.98 S0.8902
X176.18 S1.0000
X175.98 S0.9961
X175.78 S0.9843
X175.58 S0.8157
X175.38 S0.6078
X175.18 S0.3137
X174.98 S0.0824
X174.88 S0.0275
X173.68 S0.0000
X173.58 S0.0314
X173.38 S0.1843
X173.18 S0.3137
X172.98 S0.4039
X172.78 S0.5490
X172.58 S0.7176
X172.38 S0.7843
X172.18 S0.8157
X171.98 S0.7020
X171.78 S0.6314
X171.58 S0.6431
X171.38 S0.6627
X171.18 S0.6941
X170.98 S0.7804
X170.78 S0.8510
X170.58 S0.6510
X170.38 S0.4431
X170.18 S0.2196
X169.98 S0.0824
X169.88 S0.0118
X169.48 S0.0000
X169.38 S0.0078
X169.18 S0.1843
X168.98 S0.3765
X168.78 S0.6196
X168.58 S0.8157
X168.38 S0.9608
X167.98 S1.0000
X167.78 S0.9490
X167.58 S0.8627
X167.38 S0.6431
X167.18 S0.3882
X167.08 S0.0902
X164.48 S0.0000
X164.38 S0.0431
X164.18 S0.1804
X163.98 S0.4314
X163.78 S0.7725
X163.58 S0.9098
X162.38 S1.0000
X162.18 S0.7059
X161.98 S0.3216
X161.88 S0.1373
X160.48 S0.0000
X160.38 S0.1137
X160.18 S0.2510
X159.98 S0.4549
X159.78 S0.6275
X159.58 S0.7608
X159.38 S0.8784
X159.18 S0.9882
X158.58 S1.0000
X158.38 S0.9725
X158.18 S0.9020
X157.98 S0.7804
X157.78 S0.6235
X157.58 S0.5176
X157.38 S0.4157
X157.18 S0.2667
X156.98 S0.1333
X156.88 S0.0431
X154.28 S0.0000
X154.18 S0.0078
X153.98 S0.0588
X153.78 S0.1725
X153.58 S0.3647
X153.38 S0.5451
X153.18 S0.7216
X152.98 S0.8431
X152.78 S0.9490
X152.58 S0.9804
X151.58 S1.0000
X151.38 S0.9961
X151.18 S0.9216
X150.98 S0.8235
X150.78 S0.6745
X150.58 S0.5569
X150.38 S0.4588
X150.18 S0.2627
X149.98 S0.0392
X149.88 S0.0157
X148.48 S0.0000
X148.38 S0.1020
X148.18 S0.2588
X147.98 S0.6196
X147.78 S0.8667
X147.58 S0.9686
X146.58 S1.0000
X146.38 S0.9255
X146.18 S0.7216
X145.98 S0.4627
X145.78 S0.1647
X145.68 S0.0627
X145.08 S0.0000
X144.98 S0.0353
X144.78 S0.1490
X144.58 S0.4549
X144.38 S0.9098
X143.38 S1.0000
X143.18 S0.9490
X142.98 S0.8471
X142.78 S0.4824
X142.58 S0.0314
X142.48 S0.0078
X141.48 S0.0000
X141.38 S0.1765
X141.18 S0.4353
X140.98 S0.7176
X140.78 S0.9608
X140.58 S0.9843
X139.78 S1.0000
X139.58 S0.6941
X139.38 S0.3569
X139.28 S0.1412
X136.28 S0.0000
X136.18 S0.0353
X135.98 S0.1843
X135.78 S0.3059
X135.58 S0.4039
X135.38 S0.5529
X135.18 S0.7255
X134.98 S0.8431
X134.78 S0.9451
X134.58 S0.9804
X133.58 S1.0000
X133.38 S0.9922
X133.18 S0.9176
X132.98 S0.8078
X132.78 S0.6275
X132.58 S0.4941
X132.38 S0.3922
X132.18 S0.2157
X131.98 S0.0314
X131.88 S0.0118
Y28.07 S0.0000
X131.98 S0.0314
X132.18 S0.0784
X132.38 S0.4980
X132.58 S0.8745
X132.78 S0.9333
X132.98 S0.9725
X133.18 S0.9882
X133.38 S0.9961
X134.78 S1.0000
X134.98 S0.9961
X135.18 S0.9922
X135.38 S0.9843
X135.58 S0.9529
X135.78 S0.8824
X135.98 S0.7137
X136.18 S0.4431
X136.28 S0.0824
X139.28 S0.0000
X139.38 S0.1412
X139.58 S0.3569
X139.78 S0.6941
X140.58 S1.0000
X140.78 S0.9647
X140.98 S0.9059
X141.18 S0.5059
X141.38 S0.0745
X141.48 S0.0314
X142.68 S0.0000
X142.78 S0.0078
X142.98 S0.3725
X143.18 S0.6980
X143.38 S0.8980
X144.38 S1.0000
X144.58 S0.8902
X144.78 S0.3412
X144.98 S0.0235
X145.08 S0.0039
X145.68 S0.0000
X145.78 S0.0039
X145.98 S0.0275
X146.18 S0.1765
X146.38 S0.4235
X146.58 S0.8431
X147.58 S1.0000
X147.78 S0.9569
X147.98 S0.8196
X148.18 S0.5176
X148.38 S0.0941
X148.48 S0.0078
X149.88 S0.0000
X149.98 S0.0392
X150.18 S0.0902
X150.38 S0.5608
X150.58 S0.9412
X150.78 S0.9647
X150.98 S0.9804
X151.18 S0.9882
X151.38 S0.9961
X152.78 S1.0000
X152.98 S0.9961
X153.18 S0.9922
X153.38 S0.9804
X153.58 S0.9490
X153.78 S0.7922
X153.98 S0.3843
X154.18 S0.1412
X154.28 S0.0235
X156.88 S0.0000
X156.98 S0.1020
X157.18 S0.3216
X157.38 S0.6000
X157.58 S0.9059
X157.78 S0.9529
X157.98 S0.9765
X158.18 S0.9882
X158.38 S0.9961
X159.38 S1.0000
X159.58 S0.9922
X159.78 S0.9804
X159.98 S0.9569
X160.18 S0.7961
X160.38 S0.5373
X160.48 S0.2627
X161.88 S0.0000
X161.98 S0.1373
X162.18 S0.3216
X162.38 S0.7059
X163.58 S1.0000
X163.78 S0.7843
X163.98 S0.5412
X164.18 S0.2157
X164.38 S0.0235
X164.48 S0.0039
X167.08 S0.0000
X167.18 S0.1686
X167.38 S0.7059
X167.58 S0.9647
X167.78 S0.9882
X167.98 S0.9961
X168.38 S1.0000
X168.58 S0.9961
X168.78 S0.9882
X168.98 S0.8941
X169.18 S0.7176
X169.38 S0.3922
X169.48 S0.0118
X169.88 S0.0000
X169.98 S0.0314
X170.18 S0.1961
X170.38 S0.4549
X170.58 S0.8353
X170.78 S0.9686
X170.98 S0.9922
X171.18 S0.7765
X171.38 S0.5412
X171.58 S0.3137
X171.78 S0.1647
X171.98 S0.1333
X172.18 S0.3176
X172.38 S0.6314
X172.58 S0.8275
X172.78 S0.9804
X172.98 S0.9490
X173.18 S0.8784
X173.38 S0.7098
X173.58 S0.4353
X173.68 S0.0706
X175.08 S0.0000
X175.18 S0.0039
X175.38 S0.0667
X175.58 S0.1451
X175.78 S0.5961
X175.98 S0.9608
X176.18 S0.9843
X176.98 S1.0000
X177.18 S0.8863
X177.38 S0.7176
X177.58 S0.2863
X177.78 S0.0196
X177.88 S0.0039
X179.48 S0.0000
X179.58 S0.1922
X179.78 S0.5216
X179.98 S0.7647
X180.18 S0.9804
X180.38 S0.9922
X181.18 S1.0000
X181.38 S0.8627
X181.58 S0.6784
X181.78 S0.2980
X181.88 S0.0039
X182.68 S0.0000
X182.78 S0.0157
X182.98 S0.0392
X183.18 S0.4627
X183.38 S0.8471
X183.58 S0.9020
X183.78 S0.9451
X183.98 S0.9686
X184.18 S0.9804
X184.38 S0.9843
X184.58 S0.9882
X186.58 S0.9922
X186.78 S0.9882
X186.98 S0.8863
X187.18 S0.6980
X187.28 S0.3686
X189.28 S0.0000
X189.38 S0.1020
X189.58 S0.6431
X189.78 S0.9686
X189.98 S0.9843
X190.18 S0.9961
X190.78 S1.0000
X190.98 S0.9922
X191.18 S0.9216
X191.38 S0.7412
X191.58 S0.4392
X191.68 S0.0588
X192.88 S0.0000
X192.98 S0.0235
X193.18 S0.0667
X193.38 S0.4314
X193.58 S0.8745
X193.78 S0.9294
X193.98 S0.9725
X194.18 S0.9843
X194.38 S0.9922
X194.58 S0.9961
X195.58 S1.0000
X195.78 S0.9961
X195.98 S0.9922
X196.18 S0.9765
X196.38 S0.9608
X196.58 S0.6863
X196.78 S0.4000
X196.88 S0.1529
X201.88 S0.0000
X201.98 S0.0039
X202.18 S0.1843
X202.38 S0.4510
X202.58 S0.7490
X203.78 S1.0000
X203.98 S0.6745
X204.18 S0.3216
X204.38 S0.1686
X204.58 S0.0549
X204.78 S0.0196
X204.88 S0.0039
X209.48 S0.0000
X209.58 S0.2627
X209.78 S0.6667
X209.98 S0.8314
X210.18 S0.9490
X210.38 S0.9647
X210.78 S0.9765
X210.98 S0.9804
X211.98 S0.9843
X212.38 S0.9882
X212.98 S0.9843
X213.18 S0.9804
X213.38 S0.9765
X213.58 S0.9725
X213.78 S0.7098
X213.98 S0.1686
X214.08 S0.0078
X215.48 S0.0000
X215.58 S0.0431
X215.78 S0.1098
X215.98 S0.5373
X216.18 S0.9490
X216.38 S0.9647
X216.58 S0.9765
X216.78 S0.9843
X216.98 S0.9922
X217.38 S0.9961
X217.78 S1.0000
X217.98 S0.9961
X218.18 S0.9922
X218.38 S0.9843
X218.58 S0.9804
X218.78 S0.9529
X218.98 S0.9137
X219.18 S0.6627
X219.38 S0.4039
X219.48 S0.1373
X221.48 S0.0000
X221.58 S0.0078
X221.78 S0.0157
X221.98 S0.5255
X223.18 S1.0000
X223.38 S0.9922
X223.58 S0.9412
X223.78 S0.5176
X223.98 S0.1882
X224.18 S0.0706
X224.28 S0.0118
X225.48 S0.0000
X225.58 S0.0039
X225.78 S0.1804
X225.98 S0.5255
X226.18 S0.7725
X226.38 S0.9882
X226.58 S0.9961
X226.98 S1.0000
X227.18 S0.9451
X227.38 S0.8196
X227.58 S0.4902
X227.78 S0.0706
X227.88 S0.0196
X229.28 S0.0000
X229.38 S0.1529
X229.58 S0.3529
X229.78 S0.7412
X230.78 S1.0000
X230.98 S0.9804
X231.18 S0.5961
X231.38 S0.2667
X231.48 S0.0863
X232.68 S0.0000
X232.78 S0.1098
X232.98 S0.5882
X233.18 S0.8863
X233.38 S0.9725
X233.98 S1.0000
X234.18 S0.9686
X234.38 S0.7725
X234.58 S0.5176
X234.78 S0.1686
X234.98 S0.0275
X235.08 S0.0039
X236.68 S0.0000
X236.78 S0.2314
X236.98 S0.5059
X237.18 S0.7608
X237.38 S0.9216
X237.58 S0.8667
X237.78 S0.6588
X237.98 S0.3216
X238.18 S0.1725
X238.38 S0.0824
X238.58 S0.0941
X238.78 S0.1804
X238.98 S0.4941
X239.18 S0.7490
X239.38 S0.9373
X239.58 S0.9765
X239.78 S0.9569
X239.98 S0.6706
X240.18 S0.3843
X240.28 S0.1412
X242.28 S0.0000
X242.38 S0.0549
X242.58 S0.1412
X242.78 S0.5216
X242.98 S0.9294
X243.18 S0.9569
X243.38 S0.9804
X243.58 S0.9882
X243.78 S0.9922
X243.98 S0.9882
X244.18 S0.9843
X244.38 S0.9804
X244.58 S0.9608
X244.78 S0.9373
X244.98 S0.9137
X245.18 S0.8941
X245.38 S0.8824
X245.58 S0.9255
X245.78 S0.9843
X245.98 S0.9961
X246.38 S1.0000
X246.58 S0.8353
X246.78 S0.4549
X246.98 S0.2039
X247.08 S0.0157
X320.68 S0.0000
X320.78 S0.0118
X320.98 S0.1490
X321.18 S0.6353
X321.38 S0.9137
X321.58 S0.9765
X321.78 S0.9961
X325.18 S1.0000
X325.38 S0.9961
X325.58 S0.9882
X325.78 S0.9765
X325.98 S0.6941
X326.18 S0.2039
X326.28 S0.0588
X328.68 S0.0000
X328.78 S0.1529
X328.98 S0.4980
X329.18 S0.7569
X329.38 S0.9843
X329.58 S1.0000
X329.78 S0.9961
X329.98 S0.9686
X330.18 S0.7412
X330.28 S0.1961
X334.68 S0.0000
X334.78 S0.1843
X334.98 S0.5765
X335.18 S0.8157
X335.38 S0.9882
X335.58 S1.0000
X335.78 S0.9765
X335.98 S0.8392
X336.18 S0.5843
X336.28 S0.1529
X339.28 S0.0000
X339.38 S0.1098
X339.58 S0.3176
X339.78 S0.6235
X339.98 S0.9569
X340.18 S0.9804
X343.38 S1.0000
X343.58 S0.9961
X343.78 S0.9804
X343.98 S0.9490
X344.18 S0.9137
X344.38 S0.8588
X344.58 S0.8039
X344.78 S0.7137
X344.98 S0.7098
X345.18 S0.8941
X345.38 S0.9843
X345.58 S0.9961
X345.98 S1.0000
X346.18 S0.9255
X346.38 S0.7451
X346.48 S0.2510
X349.48 S0.0000
X349.58 S0.1098
X349.78 S0.4000
X349.98 S0.6824
X350.18 S0.9608
X350.58 S1.0000
X350.78 S0.9804
X350.98 S0.8000
X351.18 S0.2784
X351.38 S0.0353
X351.48 S0.0039
X355.08 S0.0000
X355.18 S0.0549
X355.38 S0.4078
X355.58 S0.6941
X355.78 S0.8863
X355.98 S0.9647
X356.18 S0.9804
X356.38 S0.9922
X356.58 S1.0000
X356.78 S0.9922
X356.98 S0.8275
X357.18 S0.3451
X357.38 S0.0941
X357.48 S0.0157
X359.48 S0.0000
X359.58 S0.3098
X359.78 S0.6078
X359.98 S0.8627
X360.38 S1.0000
X360.58 S0.8667
X360.78 S0.6745
X360.88 S0.3098
X369.68 S0.0000
X369.78 S0.0353
X369.98 S0.1137
X370.18 S0.6392
X371.38 S1.0000
X371.58 S0.9412
X371.78 S0.7725
X371.98 S0.2784
X372.18 S0.0196
X372.28 S0.0039
X380.88 S0.0000
X380.98 S0.1098
X381.18 S0.3882
X381.38 S0.6549
X381.58 S0.9176
X381.78 S0.9765
X384.78 S1.0000
X384.98 S0.9882
X385.18 S0.9725
X385.38 S0.9412
X385.58 S0.8275
X385.78 S0.6275
X385.98 S0.5137
X386.18 S0.4392
X386.38 S0.7255
X386.58 S0.9804
X386.78 S0.9922
X387.18 S1.0000
X387.38 S0.8549
X387.58 S0.6314
X387.68 S0.3020
X391.88 S0.0000
X391.98 S0.0784
X392.18 S0.1882
X392.38 S0.5765
X392.58 S0.9098
X392.78 S0.9529
X392.98 S0.9804
X393.18 S0.9922
X396.98 S1.0000
X397.18 S0.9961
X397.38 S0.9882
X397.58 S0.9725
X397.78 S0.9412
X397.98 S0.6980
X398.18 S0.3725
X398.28 S0.1647
X401.08 S0.0000
X401.18 S0.2941
X401.38 S0.6275
X401.58 S0.8510
X401.98 S1.0000
X402.18 S0.9373
X402.38 S0.8196
X402.48 S0.4353
X408.68 S0.0000
X408.78 S0.0118
X408.98 S0.2980
X409.18 S0.5765
X409.38 S0.8431
X409.58 S0.9804
X409.78 S0.9922
X412.58 S1.0000
X412.78 S0.9843
X412.98 S0.9647
X413.08 S0.4784
X414.68 S0.0000
X414.78 S0.0118
X414.98 S0.1804
X415.18 S0.4157
X415.38 S0.7922
X415.58 S0.9765
X415.78 S0.9922
X418.98 S1.0000
X419.18 S0.9882
X419.38 S0.9765
X419.58 S0.9373
X419.78 S0.8667
X419.98 S0.7373
X420.18 S0.7255
X420.38 S0.7961
X420.58 S0.8902
X420.78 S0.9843
X420.98 S0.9922
X421.38 S1.0000
X421.58 S0.9333
X421.78 S0.8118
X421.88 S0.4353
X424.28 S0.0000
X424.38 S0.0824
X424.58 S0.2706
X424.78 S0.5569
X424.98 S0.8902
X425.18 S0.9490
X425.38 S0.9843
X425.58 S0.9882
X425.78 S0.9961
X429.18 S1.0000
X429.38 S0.9961
X429.58 S0.9922
X429.78 S0.9725
X429.98 S0.9451
X430.18 S0.8941
X430.38 S0.6706
X430.58 S0.2353
X430.78 S0.0627
X430.88 S0.0039
X431.08 Y28.27 S0.0000
X430.98 S0.0392
X430.78 S0.1020
X430.58 S0.3451
X430.38 S0.5882
X430.18 S0.8392
X429.98 S0.9647
X429.78 S0.9882
X429.58 S0.9961
X425.18 S1.0000
X424.98 S0.9882
X424.78 S0.9569
X424.58 S0.7529
X424.38 S0.4980
X424.28 S0.1529
X421.88 S0.0000
X421.78 S0.4549
X421.58 S0.8431
X421.38 S0.9451
X420.58 S1.0000
X420.38 S0.9608
X420.18 S0.9176
X419.98 S0.8824
X419.78 S0.8902
X419.58 S0.9529
X419.38 S0.9843
X415.58 S1.0000
X415.38 S0.9961
X415.18 S0.9137
X414.98 S0.7333
X414.78 S0.4353
X414.58 S0.0863
X414.48 S0.0314
X413.08 S0.0000
X412.98 S0.2824
X412.78 S0.5804
X412.58 S0.6980
X412.38 S0.8196
X412.18 S0.9451
X409.38 S1.0000
X409.18 S0.9373
X408.98 S0.8118
X408.78 S0.5686
X408.58 S0.2863
X408.48 S0.1255
X402.48 S0.0000
X402.38 S0.4549
X402.18 S0.8510
X401.98 S0.9451
X401.58 S1.0000
X401.38 S0.8627
X401.18 S0.6588
X401.08 S0.3098
X398.28 S0.0000
X398.18 S0.2941
X397.98 S0.6549
X397.78 S0.8471
X397.58 S0.9843
X397.38 S0.9961
X392.78 S1.0000
X392.58 S0.9882
X392.38 S0.9725
X392.18 S0.8000
X391.98 S0.5882
X391.78 S0.3686
X391.58 S0.1765
X391.48 S0.0588
X387.68 S0.0000
X387.58 S0.3647
X387.38 S0.7451
X387.18 S0.9020
X386.38 S1.0000
X386.18 S0.8784
X385.98 S0.7451
X385.78 S0.7804
X385.58 S0.8353
X385.38 S0.9333
X385.18 S0.9843
X384.98 S0.9961
X381.78 S1.0000
X381.58 S0.9961
X381.38 S0.9725
X381.18 S0.8392
X380.98 S0.6353
X380.78 S0.3020
X380.58 S0.1137
X380.48 S0.0157
X372.28 S0.0000
X372.18 S0.0078
X371.98 S0.0275
X371.78 S0.2941
X371.58 S0.7961
X371.38 S0.9569
X370.18 S1.0000
X369.98 S0.6392
X369.78 S0.1137
X369.68 S0.0353
X360.88 S0.0000
X360.78 S0.3451
X360.58 S0.7451
X360.38 S0.8941
X359.98 S1.0000
X359.78 S0.9020
X359.58 S0.7216
X359.48 S0.3804
X357.48 S0.0000
X357.38 S0.0078
X357.18 S0.0431
X356.98 S0.2235
X356.78 S0.6039
X356.58 S0.8314
X356.38 S0.9843
X355.98 S1.0000
X355.78 S0.9961
X355.58 S0.9608
X355.38 S0.8667
X355.18 S0.6863
X354.98 S0.4510
X354.78 S0.2353
X354.58 S0.0353
X354.48 S0.0157
X351.48 S0.0000
X351.38 S0.0078
X351.18 S0.0471
X350.98 S0.3020
X350.78 S0.8196
X350.58 S0.9922
X350.18 S1.0000
X349.98 S0.9686
X349.78 S0.7608
X349.58 S0.4941
X349.48 S0.1373
X346.88 S0.0000
X346.78 S0.0039
X346.58 S0.0157
X346.38 S0.2784
X346.18 S0.7882
X345.98 S0.9529
X345.38 S1.0000
X345.18 S0.9961
X344.98 S0.9569
X344.78 S0.8745
X344.58 S0.8784
X344.38 S0.9216
X344.18 S0.9490
X343.98 S0.9725
X343.78 S0.9882
X340.18 S1.0000
X339.98 S0.9961
X339.78 S0.9922
X339.58 S0.8196
X339.38 S0.6157
X339.18 S0.3059
X338.98 S0.1020
X338.88 S0.0235
X336.48 S0.0000
X336.38 S0.0196
X336.18 S0.2000
X335.98 S0.6941
X335.78 S0.9294
X335.58 S0.9882
X335.38 S1.0000
X335.18 S0.9922
X334.98 S0.8588
X334.78 S0.6353
X334.68 S0.2039
X330.68 S0.0000
X330.58 S0.0039
X330.38 S0.0157
X330.18 S0.2275
X329.98 S0.7765
X329.78 S0.9922
X329.38 S1.0000
X329.18 S0.9843
X328.98 S0.8000
X328.78 S0.5529
X328.68 S0.1686
X326.28 S0.0000
X326.18 S0.0275
X325.98 S0.1216
X325.78 S0.4784
X325.58 S0.7373
X325.38 S0.8706
X325.18 S0.9451
X324.98 S0.9961
X321.78 S1.0000
X321.58 S0.9569
X321.38 S0.8824
X321.18 S0.7294
X320.98 S0.4667
X320.78 S0.1059
X320.68 S0.0078
X247.08 S0.0000
X246.98 S0.0157
X246.78 S0.2118
X246.58 S0.4627
X246.38 S0.8392
X245.58 S1.0000
X245.38 S0.9765
X245.18 S0.9255
X244.98 S0.8039
X244.78 S0.6980
X244.58 S0.6118
X244.38 S0.5765
X243.98 S0.5569
X243.78 S0.5804
X243.58 S0.6824
X243.38 S0.8078
X243.18 S0.9529
X242.98 S0.9922
X242.78 S0.9804
X242.58 S0.6667
X242.38 S0.3451
X242.28 S0.1294
X240.68 S0.0000
X240.58 S0.0314
X240.38 S0.1255
X240.18 S0.3529
X239.98 S0.6784
X239.78 S0.8549
X239.58 S0.9882
X239.38 S0.8784
X239.18 S0.7176
X238.98 S0.4392
X238.78 S0.2235
X238.58 S0.0706
X238.38 S0.0314
X238.18 S0.0235
X237.98 S0.0667
X237.78 S0.1451
X237.58 S0.3412
X237.38 S0.5882
X237.18 S0.8941
X236.98 S0.8980
X236.78 S0.7765
X236.58 S0.5137
X236.38 S0.2627
X236.28 S0.0980
X234.88 S0.0000
X234.78 S0.0078
X234.58 S0.0745
X234.38 S0.2510
X234.18 S0.5176
X233.98 S0.8471
X233.78 S0.9490
X233.38 S1.0000
X233.18 S0.9843
X232.98 S0.9333
X232.78 S0.6314
X232.68 S0.1176
X231.48 S0.0000
X231.38 S0.0549
X231.18 S0.1725
X230.98 S0.5294
X230.78 S0.9765
X229.78 S1.0000
X229.58 S0.7412
X229.38 S0.3529
X229.28 S0.1529
X227.88 S0.0000
X227.78 S0.0039
X227.58 S0.0353
X227.38 S0.3608
X227.18 S0.6588
X226.98 S0.8941
X226.38 S1.0000
X226.18 S0.9922
X225.98 S0.6863
X225.78 S0.3922
X225.68 S0.1333
X224.28 S0.0000
X224.18 S0.0039
X223.98 S0.0275
X223.78 S0.0863
X223.58 S0.4000
X223.38 S0.8314
X223.18 S0.9373
X222.38 S1.0000
X222.18 S0.9255
X221.98 S0.8039
X221.78 S0.4078
X221.48 S0.0039
X220.08 S0.0000
X219.98 S0.0275
X219.78 S0.1059
X219.58 S0.3294
X219.38 S0.5333
X219.18 S0.7137
X218.98 S0.8510
X218.78 S0.9725
X218.58 S0.8314
X218.38 S0.6980
X218.18 S0.6078
X217.98 S0.5451
X217.78 S0.5216
X217.18 S0.5137
X216.98 S0.5373
X216.78 S0.6863
X216.58 S0.8235
X216.38 S0.9529
X216.18 S0.9961
X215.98 S0.9882
X215.78 S0.6784
X215.58 S0.3412
X215.48 S0.1373
X214.08 S0.0000
X213.98 S0.0039
X213.78 S0.1373
X213.58 S0.5961
X213.38 S0.8706
X213.18 S0.9765
X212.58 S1.0000
X212.38 S0.9725
X212.18 S0.8471
X211.98 S0.7216
X211.78 S0.5961
X211.58 S0.5765
X211.38 S0.6000
X211.18 S0.6039
X210.98 S0.6235
X210.78 S0.7412
X210.58 S0.8549
X210.38 S0.9608
X210.18 S0.9961
X209.98 S0.9882
X209.78 S0.9333
X209.58 S0.8314
X209.38 S0.4392
X209.18 S0.1451
X209.08 S0.0431
X204.68 S0.0000
X204.58 S0.0039
X204.38 S0.0118
X204.18 S0.0667
X203.98 S0.1412
X203.78 S0.4471
X203.58 S0.7569
X203.38 S0.9059
X202.58 S1.0000
X202.38 S0.7020
X202.18 S0.3569
X202.08 S0.1451
X196.88 S0.0000
X196.78 S0.0745
X196.58 S0.1922
X196.38 S0.3490
X196.18 S0.4980
X195.98 S0.5098
X195.38 S0.5137
X195.18 S0.5176
X194.98 S0.5529
X194.78 S0.5961
X194.58 S0.6588
X194.38 S0.7373
X194.18 S0.8745
X193.98 S0.9608
X193.78 S0.9922
X193.58 S0.9804
X193.38 S0.9569
X193.18 S0.6118
X192.98 S0.2941
X192.88 S0.1059
X191.68 S0.0000
X191.58 S0.0314
X191.38 S0.2275
X191.18 S0.3843
X190.98 S0.4784
X190.58 S0.5137
X190.38 S0.6392
X190.18 S0.7843
X189.98 S0.9137
X189.78 S1.0000
X189.58 S0.9961
X189.38 S0.7216
X189.18 S0.2510
X189.08 S0.0902
X187.28 S0.0000
X187.18 S0.2863
X186.98 S0.5686
X186.78 S0.8510
X185.98 S1.0000
X185.78 S0.8549
X185.58 S0.7098
X185.38 S0.6000
X185.18 S0.5333
X184.98 S0.5176
X184.78 S0.5294
X184.58 S0.5569
X184.38 S0.6314
X184.18 S0.7255
X183.98 S0.8902
X183.78 S0.9961
X183.58 S0.9882
X183.38 S0.9686
X183.18 S0.9412
X182.98 S0.6196
X182.78 S0.2510
X182.68 S0.1059
X181.68 S0.0000
X181.58 S0.1412
X181.38 S0.3216
X181.18 S0.4627
X180.98 S0.5922
X180.78 S0.6745
X180.58 S0.7961
X180.38 S0.9569
X179.98 S1.0000
X179.78 S0.8980
X179.58 S0.7373
X179.38 S0.3333
X179.18 S0.0745
X179.08 S0.0196
X177.68 S0.0000
X177.58 S0.0039
X177.38 S0.1961
X177.18 S0.5098
X176.98 S0.7686
X176.18 S1.0000
X175.98 S0.9529
X175.78 S0.8627
X175.58 S0.4941
X175.38 S0.0549
X175.28 S0.0235
X173.88 S0.0000
X173.78 S0.1647
X173.58 S0.3647
X173.38 S0.6706
X173.18 S0.8745
X172.98 S0.9569
X172.78 S0.8902
X172.58 S0.7529
X172.38 S0.5216
X172.18 S0.2902
X171.98 S0.1373
X171.78 S0.0471
X171.58 S0.0627
X171.38 S0.1373
X171.18 S0.2471
X170.98 S0.4157
X170.78 S0.5961
X170.58 S0.7843
X170.38 S0.8431
X170.18 S0.6235
X169.98 S0.3569
X169.88 S0.0588
X169.48 S0.0000
X169.38 S0.0078
X169.18 S0.2078
X168.98 S0.3765
X168.78 S0.4706
X168.58 S0.5176
X168.38 S0.5255
X168.18 S0.6431
X167.98 S0.8000
X167.78 S0.9137
X167.58 S1.0000
X167.38 S0.9922
X167.18 S0.7882
X166.98 S0.3490
X166.78 S0.1294
X166.68 S0.0078
X164.28 S0.0000
X164.18 S0.0039
X163.98 S0.1647
X163.78 S0.4353
X163.58 S0.7216
X162.38 S1.0000
X162.18 S0.7059
X161.98 S0.3216
X161.88 S0.1373
X160.48 S0.0000
X160.38 S0.1255
X160.18 S0.2627
X159.98 S0.4118
X159.78 S0.5059
X159.18 S0.5137
X158.98 S0.5333
X158.78 S0.5529
X158.58 S0.5843
X158.38 S0.6353
X158.18 S0.7294
X157.98 S0.8431
X157.78 S0.9765
X157.58 S0.9922
X157.38 S0.9725
X157.18 S0.8235
X156.98 S0.6392
X156.78 S0.3725
X156.58 S0.1725
X156.48 S0.0314
X154.48 S0.0000
X154.38 S0.1020
X154.18 S0.2353
X153.98 S0.4745
X153.78 S0.7020
X153.58 S0.9098
X153.38 S0.9216
X153.18 S0.8314
X152.98 S0.6980
X152.78 S0.5765
X152.58 S0.5490
X152.38 S0.5294
X152.18 S0.5176
X151.18 S0.5137
X150.98 S0.6000
X150.78 S0.8745
X150.58 S0.9961
X150.38 S0.9882
X150.18 S0.6941
X149.98 S0.3333
X149.88 S0.1412
X148.28 S0.0000
X148.18 S0.0627
X147.98 S0.3843
X147.78 S0.6745
X147.58 S0.9216
X146.98 S1.0000
X146.78 S0.9765
X146.58 S0.8275
X146.38 S0.6000
X146.18 S0.2471
X145.98 S0.0745
X145.88 S0.0078
X144.88 S0.0000
X144.78 S0.0078
X144.58 S0.2510
X144.38 S0.6824
X144.18 S0.8745
X143.38 S1.0000
X143.18 S0.8275
X142.98 S0.4902
X142.78 S0.2353
X142.68 S0.0039
X141.48 S0.0000
X141.38 S0.0118
X141.18 S0.0235
X140.98 S0.4510
X140.78 S0.8510
X140.58 S0.9451
X139.78 S1.0000
X139.58 S0.6941
X139.38 S0.3569
X139.28 S0.1412
X136.88 S0.0000
X136.78 S0.0353
X136.58 S0.0824
X136.38 S0.2706
X136.18 S0.4588
X135.98 S0.6510
X135.78 S0.7412
X135.58 S0.7098
X135.38 S0.6431
X135.18 S0.5647
X134.98 S0.5569
X134.78 S0.5529
X134.58 S0.5294
X134.18 S0.5137
X133.98 S0.5333
X133.78 S0.5569
X133.58 S0.5804
X133.38 S0.6118
X133.18 S0.6667
X132.98 S0.7490
X132.78 S0.8863
X132.58 S0.9451
X132.38 S0.9490
X132.18 S0.7529
X131.98 S0.5176
X131.78 S0.2980
X131.58 S0.1176
X131.48 S0.0353
X131.28 Y28.47 S0.0000
X131.38 S0.0078
X131.58 S0.0941
X131.78 S0.2745
X131.98 S0.5686
X132.18 S0.9098
X132.38 S0.9686
X132.58 S0.9804
X132.78 S0.8784
X132.98 S0.7176
X133.18 S0.4784
X133.38 S0.3333
X133.58 S0.2392
X133.78 S0.1922
X133.98 S0.1490
X134.18 S0.1059
X134.58 S0.0784
X134.78 S0.1020
X134.98 S0.1451
X135.18 S0.1529
X135.38 S0.1608
X135.58 S0.3137
X135.78 S0.4824
X135.98 S0.6824
X136.18 S0.7804
X136.38 S0.7922
X136.58 S0.5490
X136.78 S0.2353
X136.98 S0.1059
X137.18 S0.0078
X137.28 S0.0039
X139.28 S0.0000
X139.38 S0.1412
X139.58 S0.3569
X139.78 S0.6941
X140.58 S1.0000
X140.78 S0.9137
X140.98 S0.7725
X141.08 S0.3922
X142.68 S0.0000
X142.78 S0.0039
X142.98 S0.1059
X143.18 S0.3020
X143.38 S0.7647
X144.18 S1.0000
X144.38 S0.7451
X144.58 S0.4745
X144.68 S0.1725
X146.28 S0.0000
X146.38 S0.1020
X146.58 S0.3765
X146.78 S0.6627
X146.98 S0.9569
X147.58 S1.0000
X147.78 S0.8902
X147.98 S0.5451
X148.18 S0.2667
X148.28 S0.0431
X149.88 S0.0000
X149.98 S0.2431
X150.18 S0.5725
X150.38 S0.8118
X150.78 S1.0000
X150.98 S0.7608
X151.18 S0.2392
X152.18 S0.0784
X152.38 S0.0863
X152.58 S0.1020
X152.78 S0.1373
X152.98 S0.1804
X153.18 S0.3882
X153.38 S0.6196
X153.58 S0.8314
X153.78 S0.9686
X153.98 S0.9647
X154.18 S0.7804
X154.38 S0.4667
X154.48 S0.2196
X156.48 S0.0000
X156.58 S0.0667
X156.78 S0.3529
X156.98 S0.6353
X157.18 S0.9176
X157.38 S0.9961
X157.58 S0.9922
X157.78 S0.9529
X157.98 S0.8784
X158.18 S0.6431
X158.38 S0.4392
X158.58 S0.2824
X158.78 S0.1961
X158.98 S0.1451
X159.18 S0.1098
X159.98 S0.0784
X160.18 S0.0510
X160.28 S0.0078
X161.88 S0.0000
X161.98 S0.1373
X162.18 S0.3216
X162.38 S0.7059
X163.58 S1.0000
X163.78 S0.6588
X163.98 S0.3294
X164.08 S0.1216
X166.68 S0.0000
X166.78 S0.0157
X166.98 S0.2471
X167.18 S0.5098
X167.38 S0.8471
X167.78 S1.0000
X167.98 S0.8157
X168.18 S0.5765
X168.38 S0.3020
X168.58 S0.0941
X168.78 S0.0824
X168.98 S0.0706
X169.18 S0.0549
X169.28 S0.0275
X169.88 S0.0000
X169.98 S0.0824
X170.18 S0.4980
X170.38 S0.7529
X170.58 S0.8000
X170.78 S0.5725
X170.98 S0.2157
X171.08 S0.0902
X172.48 S0.0000
X172.58 S0.2235
X172.78 S0.4941
X172.98 S0.7922
X173.38 S1.0000
X173.58 S0.8706
X173.78 S0.6392
X173.88 S0.3255
X175.68 S0.0000
X175.78 S0.3804
X175.98 S0.7255
X176.18 S0.9020
X176.98 S1.0000
X177.18 S0.6510
X177.38 S0.3020
X177.48 S0.1137
X179.08 S0.0000
X179.18 S0.0392
X179.38 S0.1529
X179.58 S0.4627
X179.78 S0.9176
X180.18 S1.0000
X180.38 S0.9725
X180.58 S0.8667
X180.78 S0.5686
X180.98 S0.3490
X181.18 S0.2078
X181.28 S0.0980
X182.68 S0.0000
X182.78 S0.2039
X182.98 S0.4902
X183.18 S0.7686
X183.58 S1.0000
X183.78 S0.9882
X183.98 S0.9647
X184.18 S0.7529
X184.38 S0.4353
X184.58 S0.2745
X184.78 S0.1490
X184.98 S0.1059
X185.18 S0.0863
X185.38 S0.1059
X185.58 S0.2314
X185.78 S0.4196
X185.98 S0.7098
X186.78 S1.0000
X186.98 S0.8039
X187.18 S0.4431
X187.28 S0.2039
X189.08 S0.0000
X189.18 S0.1765
X189.38 S0.3961
X189.58 S0.7804
X189.98 S1.0000
X190.18 S0.8275
X190.38 S0.5686
X190.58 S0.3059
X190.98 S0.0784
X191.18 S0.0706
X191.38 S0.0431
X191.58 S0.0235
X191.68 S0.0039
X192.48 S0.0000
X192.58 S0.0078
X192.78 S0.0275
X192.98 S0.2118
X193.18 S0.5373
X193.38 S0.7804
X193.58 S1.0000
X193.78 S0.9961
X193.98 S0.9647
X194.18 S0.8706
X194.38 S0.7020
X194.58 S0.4627
X194.78 S0.3216
X194.98 S0.2196
X195.18 S0.1412
X195.38 S0.0824
X195.98 S0.0784
X196.18 S0.0706
X196.38 S0.0627
X196.48 S0.0275
X202.08 S0.0000
X202.18 S0.1098
X202.38 S0.2706
X202.58 S0.6588
X203.38 S1.0000
X203.58 S0.8118
X203.78 S0.5137
X203.88 S0.2392
X209.08 S0.0000
X209.18 S0.0824
X209.38 S0.2902
X209.58 S0.5961
X209.78 S0.9569
X210.18 S1.0000
X210.38 S0.9961
X210.58 S0.9098
X210.78 S0.6784
X210.98 S0.4667
X211.18 S0.2627
X211.38 S0.2275
X211.58 S0.2196
X211.78 S0.1804
X211.98 S0.2157
X212.18 S0.4353
X212.38 S0.6784
X212.58 S0.9412
X213.18 S1.0000
X213.38 S0.9490
X213.58 S0.7412
X213.78 S0.4588
X213.88 S0.1020
X215.48 S0.0000
X215.58 S0.2196
X215.78 S0.5529
X215.98 S0.7961
X216.38 S1.0000
X216.58 S0.9059
X216.78 S0.6431
X216.98 S0.3804
X217.18 S0.1176
X217.78 S0.0784
X217.98 S0.0902
X218.18 S0.1333
X218.38 S0.2353
X218.58 S0.3882
X218.78 S0.6510
X218.98 S0.9373
X219.18 S0.9725
X219.38 S0.9765
X219.58 S0.8902
X219.78 S0.6471
X219.98 S0.2549
X220.18 S0.0863
X220.28 S0.0039
X221.88 S0.0000
X221.98 S0.2902
X222.18 S0.6000
X222.38 S0.8471
X223.18 S1.0000
X223.38 S0.8784
X223.58 S0.7098
X223.78 S0.2980
X223.98 S0.0157
X224.08 S0.0039
X225.68 S0.0000
X225.78 S0.0902
X225.98 S0.2706
X226.18 S0.6039
X226.38 S0.9922
X226.98 S1.0000
X227.18 S0.8471
X227.38 S0.5098
X227.58 S0.2471
X227.68 S0.0157
X229.28 S0.0000
X229.38 S0.1529
X229.58 S0.3529
X229.78 S0.7412
X230.78 S1.0000
X230.98 S0.9725
X231.18 S0.4627
X231.38 S0.0824
X231.48 S0.0275
X232.48 S0.0000
X232.58 S0.0275
X232.78 S0.1647
X232.98 S0.6784
X233.18 S0.9686
X233.38 S0.9922
X233.58 S0.9961
X233.78 S0.9882
X233.98 S0.8549
X234.18 S0.6706
X234.38 S0.2706
X234.58 S0.0235
X234.68 S0.0078
X235.88 S0.0000
X235.98 S0.0078
X236.18 S0.0314
X236.38 S0.2275
X236.58 S0.5373
X236.78 S0.7804
X236.98 S1.0000
X237.18 S0.9804
X237.38 S0.8196
X237.58 S0.3137
X237.78 S0.0549
X237.88 S0.0118
X239.08 S0.0000
X239.18 S0.1529
X239.38 S0.4706
X239.58 S0.7373
X239.78 S0.9804
X239.98 S0.9961
X240.18 S0.9294
X240.38 S0.5765
X240.58 S0.2824
X240.78 S0.0745
X240.88 S0.0039
X242.28 S0.0000
X242.38 S0.2078
X242.58 S0.5529
X242.78 S0.7922
X243.18 S1.0000
X243.38 S0.9098
X243.58 S0.6118
X243.78 S0.3765
X243.98 S0.1922
X244.38 S0.1529
X244.58 S0.1961
X244.78 S0.2706
X244.98 S0.4353
X245.18 S0.6431
X245.38 S0.8902
X245.58 S0.9765
X246.38 S1.0000
X246.58 S0.8353
X246.78 S0.4588
X246.98 S0.2078
X247.08 S0.0157
X320.68 S0.0000
X320.78 S0.0039
X320.98 S0.0588
X321.18 S0.2745
X321.38 S0.4941
X321.58 S0.7137
X321.78 S0.8275
X321.98 S0.8980
X322.58 S0.9020
X322.78 S0.9255
X322.98 S0.9765
X323.18 S0.9961
X323.98 S1.0000
X324.18 S0.9804
X324.38 S0.9333
X324.58 S0.9137
X324.98 S0.9020
X325.18 S0.8941
X325.38 S0.8118
X325.58 S0.6824
X325.78 S0.4588
X325.98 S0.2471
X326.08 S0.0392
X328.68 S0.0000
X328.78 S0.1843
X328.98 S0.6039
X329.18 S0.8353
X329.38 S0.9882
X329.98 S1.0000
X330.18 S0.7882
X330.38 S0.2510
X330.58 S0.0353
X330.68 S0.0039
X334.68 S0.0000
X334.78 S0.2157
X334.98 S0.6745
X335.18 S0.8863
X335.38 S0.9922
X335.98 S1.0000
X336.18 S0.7843
X336.38 S0.2471
X336.58 S0.0353
X336.68 S0.0039
X338.88 S0.0000
X338.98 S0.0549
X339.18 S0.2353
X339.38 S0.5176
X339.58 S0.8824
X339.78 S0.9804
X340.58 S1.0000
X340.78 S0.9961
X340.98 S0.9882
X341.18 S0.9725
X341.38 S0.9529
X341.58 S0.9333
X342.38 S0.9176
X342.58 S0.9216
X342.78 S0.9294
X342.98 S0.9373
X343.18 S0.9490
X343.38 S0.9686
X343.58 S0.9843
X343.78 S0.9961
X345.98 S1.0000
X346.18 S0.9647
X346.38 S0.8078
X346.58 S0.3020
X346.78 S0.0275
X346.88 S0.0078
X349.48 S0.0000
X349.58 S0.1569
X349.78 S0.5765
X349.98 S0.8275
X350.18 S0.9765
X350.58 S1.0000
X350.78 S0.9922
X350.98 S0.8235
X351.18 S0.3176
X351.38 S0.0627
X351.48 S0.0118
X354.08 S0.0000
X354.18 S0.0039
X354.38 S0.0118
X354.58 S0.0627
X354.78 S0.1333
X354.98 S0.4824
X355.18 S0.8157
X355.38 S0.9294
X355.58 S0.9961
X356.18 S1.0000
X356.38 S0.9843
X356.58 S0.9373
X356.78 S0.6431
X356.98 S0.3647
X357.08 S0.1059
X359.48 S0.0000
X359.58 S0.4510
X359.78 S0.8275
X359.98 S0.9412
X360.38 S1.0000
X360.58 S0.9216
X360.78 S0.8039
X360.88 S0.3725
X369.68 S0.0000
X369.78 S0.0353
X369.98 S0.1137
X370.18 S0.6392
X371.38 S1.0000
X371.58 S0.9608
X371.78 S0.8078
X371.98 S0.3059
X372.18 S0.0353
X372.28 S0.0078
X380.28 S0.0000
X380.38 S0.0039
X380.58 S0.0431
X380.78 S0.2588
X380.98 S0.5216
X381.18 S0.8588
X381.38 S0.9882
X382.18 S1.0000
X382.38 S0.9961
X382.58 S0.9882
X382.78 S0.9725
X382.98 S0.9529
X383.18 S0.9333
X383.78 S0.9176
X383.98 S0.9255
X384.18 S0.9333
X384.38 S0.9451
X384.58 S0.9608
X384.78 S0.9804
X384.98 S0.9922
X387.18 S1.0000
X387.38 S0.9373
X387.58 S0.8431
X387.68 S0.4157
X391.08 S0.0000
X391.18 S0.0039
X391.38 S0.0275
X391.58 S0.1529
X391.78 S0.3843
X391.98 S0.6588
X392.18 S0.9451
X392.38 S0.9804
X393.18 S1.0000
X393.58 S0.9961
X393.78 S0.9804
X393.98 S0.9647
X394.18 S0.9529
X394.38 S0.9373
X394.58 S0.9216
X394.78 S0.9137
X394.98 S0.9098
X395.18 S0.9059
X395.58 S0.9020
X395.78 S0.9098
X395.98 S0.9216
X396.18 S0.9333
X396.38 S0.9373
X396.58 S0.9529
X396.78 S0.9647
X396.98 S0.9765
X397.18 S0.9843
X397.38 S0.9961
X397.78 S1.0000
X397.98 S0.9608
X398.18 S0.9020
X398.28 S0.4078
X401.08 S0.0000
X401.18 S0.3255
X401.38 S0.6902
X401.58 S0.8745
X401.98 S1.0000
X402.18 S0.9569
X402.38 S0.8784
X402.48 S0.4706
X408.48 S0.0000
X408.58 S0.2510
X408.78 S0.5569
X408.98 S0.8157
X409.78 S1.0000
X409.98 S0.9882
X410.18 S0.9765
X410.38 S0.9569
X410.78 S0.9451
X410.98 S0.9412
X411.18 S0.9333
X411.38 S0.9294
X411.58 S0.9255
X411.78 S0.9216
X411.98 S0.9137
X412.18 S0.9059
X412.38 S0.8118
X412.58 S0.5961
X412.78 S0.3961
X412.98 S0.2039
X413.08 S0.0902
X414.48 S0.0000
X414.58 S0.0902
X414.78 S0.2196
X414.98 S0.6784
X416.18 S1.0000
X416.38 S0.9804
X416.58 S0.9608
X416.78 S0.9490
X416.98 S0.9373
X417.18 S0.9216
X417.38 S0.9137
X417.58 S0.9098
X417.78 S0.9059
X417.98 S0.9020
X418.18 S0.9137
X418.38 S0.9216
X418.58 S0.9294
X418.78 S0.9412
X418.98 S0.9608
X419.18 S0.9765
X419.38 S0.9882
X419.58 S0.9961
X421.38 S1.0000
X421.58 S0.9529
X421.78 S0.8706
X421.88 S0.4706
X424.28 S0.0000
X424.38 S0.2118
X424.58 S0.6941
X424.78 S0.9098
X424.98 S0.9922
X425.78 S1.0000
X425.98 S0.9922
X426.18 S0.9843
X426.38 S0.9725
X426.58 S0.9608
X426.78 S0.9529
X426.98 S0.9373
X427.18 S0.9255
X427.38 S0.9176
X427.58 S0.9137
X427.78 S0.9098
X427.98 S0.9059
X428.18 S0.9020
X428.38 S0.9137
X428.58 S0.9216
X428.78 S0.9255
X428.98 S0.9373
X429.18 S0.9490
X429.38 S0.9686
X429.58 S0.9882
X429.78 S0.9961
X430.18 S1.0000
X430.38 S0.9686
X430.58 S0.9020
X430.78 S0.6196
X430.98 S0.2392
X431.08 S0.1020
Y28.67 S0.0000
X430.98 S0.2510
X430.78 S0.5490
X430.58 S0.7882
X430.38 S0.9647
X430.18 S0.9882
X429.78 S1.0000
X429.58 S0.9647
X429.38 S0.9216
X429.18 S0.7882
X428.98 S0.6667
X428.78 S0.5725
X428.58 S0.5059
X428.38 S0.4588
X428.18 S0.4000
X427.98 S0.3373
X427.78 S0.3529
X427.58 S0.3765
X427.38 S0.4118
X427.18 S0.4549
X426.98 S0.5020
X426.78 S0.5804
X426.58 S0.6745
X426.38 S0.7373
X426.18 S0.8000
X425.98 S0.8902
X425.78 S0.9569
X425.58 S0.9882
X424.98 S1.0000
X424.78 S0.9922
X424.58 S0.9216
X424.38 S0.7137
X424.28 S0.2196
X421.88 S0.0000
X421.78 S0.5255
X421.58 S0.9529
X421.38 S0.9843
X419.58 S1.0000
X419.38 S0.9647
X419.18 S0.9098
X418.98 S0.8275
X418.78 S0.7412
X418.58 S0.6118
X418.38 S0.5098
X418.18 S0.4549
X417.98 S0.4000
X417.78 S0.3451
X417.58 S0.3569
X417.38 S0.3882
X417.18 S0.4118
X416.98 S0.4627
X416.78 S0.5686
X416.58 S0.6627
X416.38 S0.7412
X416.18 S0.8627
X414.98 S1.0000
X414.78 S0.8353
X414.58 S0.5961
X414.48 S0.2745
X413.08 S0.0000
X412.98 S0.0353
X412.78 S0.0745
X412.58 S0.1490
X412.38 S0.2235
X412.18 S0.3020
X411.98 S0.3686
X411.78 S0.4235
X411.58 S0.4549
X411.38 S0.4824
X411.18 S0.5059
X410.98 S0.5412
X410.78 S0.5961
X410.38 S0.6235
X410.18 S0.7176
X409.98 S0.8392
X409.78 S0.9294
X408.98 S1.0000
X408.78 S0.8863
X408.58 S0.7255
X408.48 S0.3294
X402.48 S0.0000
X402.38 S0.5176
X402.18 S0.9529
X401.98 S0.9843
X401.58 S1.0000
X401.38 S0.9137
X401.18 S0.7843
X401.08 S0.3765
X398.28 S0.0000
X398.18 S0.4353
X397.98 S0.9647
X397.78 S0.9843
X397.38 S1.0000
X397.18 S0.9647
X396.98 S0.8980
X396.78 S0.8353
X396.58 S0.7725
X396.38 S0.6667
X396.18 S0.5765
X395.98 S0.5373
X395.78 S0.4706
X395.58 S0.3725
X395.38 S0.3412
X395.18 S0.3373
X394.98 S0.3569
X394.78 S0.3843
X394.58 S0.4118
X394.38 S0.4745
X394.18 S0.5765
X393.98 S0.6706
X393.78 S0.7569
X393.58 S0.8627
X393.38 S0.9647
X393.18 S0.9882
X392.38 S1.0000
X392.18 S0.9922
X391.98 S0.9804
X391.78 S0.8706
X391.58 S0.7137
X391.38 S0.4235
X391.18 S0.1961
X391.08 S0.0392
X387.68 S0.0000
X387.58 S0.4275
X387.38 S0.8667
X387.18 S0.9490
X384.98 S1.0000
X384.78 S0.9373
X384.58 S0.8588
X384.38 S0.7373
X384.18 S0.6275
X383.98 S0.5529
X383.78 S0.4902
X383.58 S0.4471
X383.18 S0.4314
X382.98 S0.5569
X382.78 S0.6863
X382.58 S0.8118
X382.38 S0.9137
X382.18 S0.9765
X381.38 S1.0000
X381.18 S0.9961
X380.98 S0.9490
X380.78 S0.8196
X380.58 S0.5294
X380.38 S0.1373
X380.28 S0.0392
X372.28 S0.0000
X372.18 S0.0078
X371.98 S0.0392
X371.78 S0.3137
X371.58 S0.8118
X371.38 S0.9647
X370.18 S1.0000
X369.98 S0.6392
X369.78 S0.1137
X369.68 S0.0353
X360.88 S0.0000
X360.78 S0.4039
X360.58 S0.8627
X360.38 S0.9451
X359.98 S1.0000
X359.78 S0.9765
X359.58 S0.9373
X359.48 S0.5216
X357.08 S0.0000
X356.98 S0.0392
X356.78 S0.1373
X356.58 S0.3961
X356.38 S0.7412
X356.18 S0.8902
X355.38 S1.0000
X355.18 S0.9725
X354.98 S0.9333
X354.78 S0.7333
X354.58 S0.5059
X354.38 S0.2627
X354.18 S0.0784
X354.08 S0.0235
X351.48 S0.0000
X351.38 S0.0118
X351.18 S0.0706
X350.98 S0.3255
X350.78 S0.8275
X350.58 S0.9961
X350.18 S1.0000
X349.98 S0.9804
X349.78 S0.8510
X349.58 S0.6078
X349.48 S0.1647
X346.88 S0.0000
X346.78 S0.0078
X346.58 S0.0353
X346.38 S0.3098
X346.18 S0.8157
X345.98 S0.9686
X343.78 S1.0000
X343.58 S0.9686
X343.38 S0.8863
X343.18 S0.7765
X342.98 S0.6549
X342.78 S0.5843
X342.58 S0.5216
X342.38 S0.4667
X341.58 S0.4314
X341.38 S0.5451
X341.18 S0.6863
X340.98 S0.8157
X340.78 S0.9255
X340.58 S0.9765
X339.78 S1.0000
X339.58 S0.9922
X339.38 S0.9490
X339.18 S0.7765
X338.98 S0.5059
X338.78 S0.1216
X338.68 S0.0078
X336.68 S0.0000
X336.58 S0.0039
X336.38 S0.0471
X336.18 S0.2588
X335.98 S0.7882
X335.38 S1.0000
X335.18 S0.9922
X334.98 S0.8863
X334.78 S0.6745
X334.68 S0.2157
X330.68 S0.0000
X330.58 S0.0039
X330.38 S0.0431
X330.18 S0.2627
X329.98 S0.7922
X329.38 S1.0000
X329.18 S0.9922
X328.98 S0.8667
X328.78 S0.6471
X328.68 S0.2000
X326.08 S0.0000
X325.98 S0.0157
X325.78 S0.0902
X325.58 S0.1686
X325.38 S0.2549
X325.18 S0.3020
X324.98 S0.3333
X324.78 S0.3373
X324.58 S0.3451
X324.38 S0.4000
X324.18 S0.5569
X323.98 S0.8784
X323.38 S1.0000
X323.18 S0.9961
X322.98 S0.9647
X322.78 S0.8275
X322.58 S0.4863
X321.98 S0.3373
X321.78 S0.3333
X321.58 S0.3098
X321.38 S0.2667
X321.18 S0.1843
X320.98 S0.1020
X320.88 S0.0235
X247.08 S0.0000
X246.98 S0.0157
X246.78 S0.1686
X246.58 S0.4039
X246.38 S0.8196
X245.78 S1.0000
X245.58 S0.9961
X245.38 S0.8353
X245.18 S0.6392
X244.98 S0.3412
X244.78 S0.1608
X244.58 S0.1020
X244.38 S0.0745
X244.18 S0.0588
X243.98 S0.0549
X243.78 S0.0863
X243.58 S0.2157
X243.38 S0.4706
X243.18 S0.8745
X242.78 S1.0000
X242.58 S0.8941
X242.38 S0.7255
X242.28 S0.2745
X241.08 S0.0000
X240.98 S0.0039
X240.78 S0.0196
X240.58 S0.1608
X240.38 S0.5373
X240.18 S0.7922
X239.98 S0.9647
X239.78 S0.9725
X239.58 S0.9255
X239.38 S0.5333
X239.18 S0.2118
X239.08 S0.0706
X237.88 S0.0000
X237.78 S0.0039
X237.58 S0.0196
X237.38 S0.2314
X237.18 S0.6588
X236.98 S0.8706
X236.78 S0.9922
X236.58 S0.9176
X236.38 S0.7922
X236.18 S0.4745
X235.98 S0.2196
X235.88 S0.0588
X234.68 S0.0000
X234.58 S0.0039
X234.38 S0.0078
X234.18 S0.1020
X233.98 S0.2510
X233.78 S0.5765
X233.58 S0.9255
X233.38 S0.9686
X233.18 S0.9961
X232.98 S0.9882
X232.78 S0.7804
X232.58 S0.4039
X232.48 S0.1804
X231.48 S0.0000
X231.38 S0.0235
X231.18 S0.0706
X230.98 S0.4471
X230.78 S0.9529
X230.58 S0.9882
X229.78 S1.0000
X229.58 S0.7412
X229.38 S0.3529
X229.28 S0.1529
X227.68 S0.0000
X227.58 S0.0118
X227.38 S0.1882
X227.18 S0.4275
X226.98 S0.8196
X226.38 S1.0000
X226.18 S0.9922
X225.98 S0.5529
X225.78 S0.1922
X225.68 S0.0667
X224.08 S0.0000
X223.98 S0.0039
X223.78 S0.0078
X223.58 S0.2196
X223.38 S0.5333
X223.18 S0.7882
X222.38 S1.0000
X222.18 S0.7843
X221.98 S0.4314
X221.88 S0.1961
X220.28 S0.0000
X220.18 S0.0078
X219.98 S0.2902
X219.78 S0.5608
X219.58 S0.8157
X219.38 S0.9569
X219.18 S0.9804
X218.98 S0.8118
X218.78 S0.5804
X218.58 S0.3451
X218.38 S0.1451
X218.18 S0.0863
X217.98 S0.0510
X217.78 S0.0353
X217.18 S0.0275
X216.98 S0.0549
X216.78 S0.2314
X216.58 S0.4863
X216.38 S0.8627
X215.98 S1.0000
X215.78 S0.8353
X215.58 S0.6275
X215.48 S0.2510
X213.88 S0.0000
X213.78 S0.0784
X213.58 S0.3569
X213.38 S0.6431
X213.18 S0.9294
X212.58 S1.0000
X212.38 S0.9059
X212.18 S0.4824
X211.98 S0.2039
X211.78 S0.0902
X211.58 S0.0667
X211.38 S0.0824
X211.18 S0.0863
X210.98 S0.0980
X210.78 S0.1725
X210.58 S0.3882
X210.38 S0.8000
X210.18 S0.9647
X209.98 S0.9961
X209.78 S1.0000
X209.58 S0.9647
X209.38 S0.6784
X209.18 S0.3922
X209.08 S0.1137
X203.88 S0.0000
X203.78 S0.1529
X203.58 S0.3569
X203.38 S0.7490
X202.58 S1.0000
X202.38 S0.6235
X202.18 S0.2000
X202.08 S0.0824
X196.48 S0.0000
X196.38 S0.0118
X196.18 S0.0235
X195.58 S0.0275
X195.18 S0.0314
X194.98 S0.0549
X194.78 S0.0824
X194.58 S0.1216
X194.38 S0.1882
X194.18 S0.3294
X193.98 S0.5569
X193.78 S0.8588
X193.58 S0.9647
X193.38 S1.0000
X193.18 S0.9176
X192.98 S0.7804
X192.78 S0.4314
X192.58 S0.1765
X192.48 S0.0431
X191.48 S0.0000
X191.38 S0.0078
X191.18 S0.0157
X190.58 S0.0275
X190.38 S0.2078
X190.18 S0.4235
X189.98 S0.7725
X189.58 S1.0000
X189.38 S0.8078
X189.18 S0.4784
X189.08 S0.2235
X187.28 S0.0000
X187.18 S0.1647
X186.98 S0.3843
X186.78 S0.7843
X185.98 S1.0000
X185.78 S0.5961
X185.58 S0.2235
X185.38 S0.1098
X185.18 S0.0392
X184.98 S0.0314
X184.78 S0.0392
X184.58 S0.0549
X184.38 S0.1020
X184.18 S0.1843
X183.98 S0.4980
X183.78 S0.7569
X183.58 S0.9294
X183.18 S1.0000
X182.98 S0.9137
X182.78 S0.7882
X182.68 S0.3255
X181.28 S0.0000
X181.18 S0.0353
X180.98 S0.0784
X180.78 S0.1294
X180.58 S0.2980
X180.38 S0.5843
X180.18 S0.8000
X179.98 S0.9922
X179.78 S1.0000
X179.58 S0.9294
X179.38 S0.5412
X179.18 S0.2431
X179.08 S0.0627
X177.48 S0.0000
X177.38 S0.0510
X177.18 S0.1373
X176.98 S0.5569
X176.18 S1.0000
X175.98 S0.7922
X175.78 S0.4196
X175.68 S0.1882
X173.88 S0.0000
X173.78 S0.4078
X173.58 S0.7725
X173.38 S0.9176
X173.18 S0.9961
X172.98 S0.9882
X172.78 S0.6784
X172.58 S0.2235
X172.48 S0.0902
X171.08 S0.0000
X170.98 S0.0314
X170.78 S0.0941
X170.58 S0.3882
X170.38 S0.6196
X170.18 S0.7216
X169.98 S0.5216
X169.88 S0.0863
X169.28 S0.0000
X169.18 S0.0118
X168.98 S0.0196
X168.78 S0.0275
X168.58 S0.0314
X168.38 S0.0353
X168.18 S0.1490
X167.98 S0.2980
X167.78 S0.6902
X167.38 S1.0000
X167.18 S0.8588
X166.98 S0.5490
X166.78 S0.2745
X166.68 S0.0196
X164.08 S0.0000
X163.98 S0.0627
X163.78 S0.1725
X163.58 S0.5647
X162.38 S1.0000
X162.18 S0.7059
X161.98 S0.3216
X161.88 S0.1373
X160.28 S0.0000
X160.18 S0.0039
X159.98 S0.0196
X159.18 S0.0275
X158.98 S0.0392
X158.78 S0.0549
X158.58 S0.0745
X158.38 S0.1059
X158.18 S0.1647
X157.98 S0.2745
X157.78 S0.4275
X157.58 S0.6863
X157.38 S0.9529
X157.18 S0.9804
X156.98 S0.9569
X156.78 S0.8157
X156.58 S0.5216
X156.48 S0.0980
X154.48 S0.0000
X154.38 S0.3725
X154.18 S0.7216
X153.98 S0.8863
X153.78 S0.9412
X153.58 S0.8353
X153.38 S0.5843
X153.18 S0.2549
X152.98 S0.1451
X152.78 S0.0667
X152.58 S0.0510
X152.38 S0.0392
X152.18 S0.0314
X151.18 S0.0275
X150.98 S0.2000
X150.78 S0.7490
X150.38 S1.0000
X150.18 S0.8941
X149.98 S0.7529
X149.88 S0.3216
X148.28 S0.0000
X148.18 S0.0392
X147.98 S0.2314
X147.78 S0.5059
X147.58 S0.8784
X146.98 S1.0000
X146.78 S0.9490
X146.58 S0.5882
X146.38 S0.2863
X146.28 S0.0784
X144.68 S0.0000
X144.58 S0.1137
X144.38 S0.3176
X144.18 S0.6510
X143.38 S1.0000
X143.18 S0.7294
X142.98 S0.2039
X142.88 S0.0392
X141.08 S0.0000
X140.98 S0.2706
X140.78 S0.5647
X140.58 S0.8353
X139.78 S1.0000
X139.58 S0.6941
X139.38 S0.3569
X139.28 S0.1412
X137.28 S0.0000
X137.18 S0.0157
X136.98 S0.0471
X136.78 S0.3294
X136.58 S0.6941
X136.38 S0.7961
X136.18 S0.8118
X135.98 S0.5333
X135.78 S0.3216
X135.58 S0.1961
X135.38 S0.1176
X135.18 S0.0588
X134.78 S0.0549
X134.58 S0.0392
X134.18 S0.0275
X133.98 S0.0392
X133.78 S0.0549
X133.58 S0.0706
X133.38 S0.0902
X133.18 S0.1255
X132.98 S0.1922
X132.78 S0.3176
X132.58 S0.5804
X132.38 S0.9373
X132.18 S0.9882
X131.98 S0.9647
X131.78 S0.8039
X131.58 S0.5882
X131.38 S0.2431
X131.18 S0.0588
X131.08 S0.0118
Y28.87 S0.0000
X131.18 S0.0314
X131.38 S0.1686
X131.58 S0.4235
X131.78 S0.8118
X131.98 S0.9569
X132.18 S0.9961
X132.38 S0.9686
X132.58 S0.8549
X132.78 S0.3686
X132.98 S0.0588
X133.08 S0.0157
X135.68 S0.0000
X135.78 S0.0196
X135.98 S0.0824
X136.18 S0.3294
X136.38 S0.7294
X136.58 S0.8863
X136.78 S0.9725
X136.98 S0.5176
X137.18 S0.1490
X137.28 S0.0510
X139.28 S0.0000
X139.38 S0.1412
X139.58 S0.3569
X139.78 S0.6941
X140.58 S1.0000
X140.78 S0.7843
X140.98 S0.4314
X141.08 S0.1961
X143.08 S0.0000
X143.18 S0.1451
X143.38 S0.7059
X143.58 S0.9961
X143.78 S1.0000
X143.98 S0.9961
X144.18 S0.9922
X144.38 S0.5686
X144.58 S0.1922
X144.68 S0.0706
X146.28 S0.0000
X146.38 S0.0549
X146.58 S0.1961
X146.78 S0.5137
X146.98 S0.9373
X147.58 S1.0000
X147.78 S0.8706
X147.98 S0.4706
X148.18 S0.2000
X148.28 S0.0314
X149.88 S0.0000
X149.98 S0.3804
X150.18 S0.8902
X150.38 S0.9569
X150.78 S1.0000
X150.98 S0.7412
X151.08 S0.1765
X153.28 S0.0000
X153.38 S0.0353
X153.58 S0.3647
X153.78 S0.6627
X153.98 S0.8980
X154.18 S0.9647
X154.38 S0.9020
X154.58 S0.5137
X154.78 S0.0745
X154.88 S0.0314
X156.28 S0.0000
X156.38 S0.0627
X156.58 S0.2157
X156.78 S0.6706
X156.98 S0.9373
X157.18 S0.9843
X157.38 S0.9176
X157.58 S0.8000
X157.78 S0.4431
X157.98 S0.1216
X158.08 S0.0471
X161.88 S0.0000
X161.98 S0.1373
X162.18 S0.3216
X162.38 S0.7059
X163.18 S1.0000
X163.38 S0.9961
X163.58 S0.9922
X163.78 S0.5020
X163.98 S0.0745
X164.08 S0.0275
X166.68 S0.0000
X166.78 S0.0235
X166.98 S0.3137
X167.18 S0.6000
X167.38 S0.8745
X167.78 S1.0000
X167.98 S0.6000
X168.18 S0.1020
X168.28 S0.0431
X169.88 S0.0000
X169.98 S0.0784
X170.18 S0.4784
X170.38 S0.6157
X170.58 S0.4078
X170.78 S0.2118
X170.88 S0.0157
X172.48 S0.0000
X172.58 S0.0078
X172.78 S0.0627
X172.98 S0.6039
X173.18 S0.9765
X173.38 S0.9922
X173.58 S0.9529
X173.78 S0.8667
X173.88 S0.4627
X175.68 S0.0000
X175.78 S0.0549
X175.98 S0.2078
X176.18 S0.7176
X176.38 S0.9961
X176.98 S1.0000
X177.18 S0.4980
X177.38 S0.0392
X177.48 S0.0157
X179.08 S0.0000
X179.18 S0.0824
X179.38 S0.3255
X179.58 S0.6157
X179.78 S0.9412
X179.98 S1.0000
X180.18 S0.9843
X180.38 S0.6510
X180.58 S0.3490
X180.68 S0.1137
X182.68 S0.0000
X182.78 S0.4000
X182.98 S0.9647
X183.58 S1.0000
X183.78 S0.8784
X183.98 S0.5765
X184.18 S0.2980
X184.28 S0.0314
X185.48 S0.0000
X185.58 S0.0353
X185.78 S0.0980
X185.98 S0.5255
X186.78 S1.0000
X186.98 S0.7647
X187.18 S0.3294
X187.28 S0.1294
X189.08 S0.0000
X189.18 S0.2824
X189.38 S0.5765
X189.58 S0.8431
X189.98 S1.0000
X190.18 S0.7098
X190.38 S0.2745
X190.48 S0.1137
X192.48 S0.0000
X192.58 S0.0784
X192.78 S0.3255
X192.98 S0.6157
X193.18 S0.9333
X193.38 S1.0000
X193.58 S0.9961
X193.78 S0.8863
X193.98 S0.7059
X194.18 S0.3176
X194.38 S0.0824
X194.48 S0.0196
X202.08 S0.0000
X202.18 S0.0667
X202.38 S0.1608
X202.58 S0.6039
X203.38 S1.0000
X203.58 S0.6980
X203.78 S0.2196
X203.88 S0.0784
X209.08 S0.0000
X209.18 S0.1412
X209.38 S0.4902
X209.58 S0.7529
X209.78 S0.9725
X209.98 S1.0000
X210.18 S0.9882
X210.38 S0.8980
X210.58 S0.6706
X210.68 S0.1961
X211.88 S0.0000
X211.98 S0.0118
X212.18 S0.0510
X212.38 S0.3529
X212.58 S0.8784
X213.18 S1.0000
X213.38 S0.9176
X213.58 S0.5686
X213.78 S0.2784
X213.88 S0.0627
X215.48 S0.0000
X215.58 S0.2784
X215.78 S0.6941
X215.98 S0.8706
X216.38 S1.0000
X216.58 S0.8353
X216.78 S0.3882
X216.98 S0.1373
X217.08 S0.0196
X218.68 S0.0000
X218.78 S0.1216
X218.98 S0.2824
X219.18 S0.6667
X219.38 S0.9608
X219.58 S0.9882
X219.78 S0.9333
X219.98 S0.8039
X220.18 S0.4784
X220.38 S0.0784
X220.48 S0.0275
X221.88 S0.0000
X221.98 S0.1137
X222.18 S0.2824
X222.38 S0.7255
X223.18 S1.0000
X223.38 S0.7059
X223.58 S0.3725
X223.68 S0.1490
X225.68 S0.0000
X225.78 S0.0471
X225.98 S0.1333
X226.18 S0.5137
X226.38 S0.9882
X226.98 S1.0000
X227.18 S0.8039
X227.38 S0.3765
X227.58 S0.1490
X227.68 S0.0118
X229.28 S0.0000
X229.38 S0.1490
X229.58 S0.3451
X229.78 S0.7373
X230.58 S1.0000
X230.78 S0.9843
X230.98 S0.9412
X231.18 S0.4353
X231.38 S0.0627
X231.48 S0.0196
X232.08 S0.0000
X232.18 S0.0118
X232.38 S0.0235
X232.58 S0.3451
X232.78 S0.6471
X232.98 S0.8784
X233.18 S0.9961
X233.38 S0.9922
X233.58 S0.8941
X233.78 S0.7529
X233.88 S0.3490
X235.88 S0.0000
X235.98 S0.1059
X236.18 S0.4039
X236.38 S0.6863
X236.58 S0.9529
X236.78 S1.0000
X236.98 S0.9882
X237.18 S0.7804
X237.38 S0.5294
X237.48 S0.1686
X239.08 S0.0000
X239.18 S0.0157
X239.38 S0.0471
X239.58 S0.3608
X239.78 S0.7843
X239.98 S0.9098
X240.18 S0.9922
X240.38 S0.9412
X240.58 S0.7255
X240.78 S0.2824
X240.98 S0.0824
X241.08 S0.0078
X242.28 S0.0000
X242.38 S0.3216
X242.58 S0.8471
X242.78 S0.9647
X243.18 S1.0000
X243.38 S0.8549
X243.58 S0.3843
X243.78 S0.1176
X243.88 S0.0196
X245.08 S0.0000
X245.18 S0.1451
X245.38 S0.4392
X245.58 S0.7176
X245.78 S0.9922
X246.38 S1.0000
X246.58 S0.8118
X246.78 S0.3725
X246.98 S0.1412
X247.08 S0.0118
X322.68 S0.0000
X322.78 S0.2235
X322.98 S0.7412
X323.18 S0.9451
X323.38 S0.9961
X323.98 S1.0000
X324.18 S0.8196
X324.38 S0.3333
X324.58 S0.0980
X324.68 S0.0118
X328.68 S0.0000
X328.78 S0.2078
X328.98 S0.6706
X329.18 S0.8863
X329.38 S0.9922
X329.98 S1.0000
X330.18 S0.7961
X330.38 S0.2706
X330.58 S0.0510
X330.68 S0.0039
X334.68 S0.0000
X334.78 S0.2157
X334.98 S0.6745
X335.18 S0.8863
X335.38 S0.9922
X335.98 S1.0000
X336.18 S0.7882
X336.38 S0.2667
X336.58 S0.0510
X336.68 S0.0039
X338.48 S0.0000
X338.58 S0.0039
X338.78 S0.0510
X338.98 S0.2275
X339.18 S0.7020
X339.38 S0.9451
X339.58 S0.9882
X340.18 S1.0000
X340.38 S0.9882
X340.58 S0.9451
X340.78 S0.8549
X340.98 S0.7216
X341.18 S0.5647
X341.38 S0.4039
X341.58 S0.2431
X342.38 S0.1098
X342.58 S0.1529
X342.78 S0.2118
X342.98 S0.2863
X343.18 S0.3686
X343.38 S0.5098
X343.58 S0.6471
X343.78 S0.7804
X343.98 S0.8784
X344.18 S0.9529
X344.38 S0.9804
X345.98 S1.0000
X346.18 S0.9725
X346.38 S0.8235
X346.58 S0.3176
X346.78 S0.0431
X346.88 S0.0078
X349.48 S0.0000
X349.58 S0.1725
X349.78 S0.6235
X349.98 S0.8667
X350.18 S0.9843
X350.58 S1.0000
X350.78 S0.9961
X350.98 S0.8314
X351.18 S0.3294
X351.38 S0.0745
X351.48 S0.0118
X353.68 S0.0000
X353.78 S0.0039
X353.98 S0.0157
X354.18 S0.0941
X354.38 S0.2588
X354.58 S0.5059
X354.78 S0.7882
X354.98 S0.9098
X355.78 S1.0000
X355.98 S0.9725
X356.18 S0.9255
X356.38 S0.7176
X356.58 S0.4784
X356.68 S0.1922
X359.48 S0.0000
X359.58 S0.5608
X360.38 S1.0000
X360.58 S0.9569
X360.78 S0.8980
X360.88 S0.4196
X369.68 S0.0000
X369.78 S0.0353
X369.98 S0.1137
X370.18 S0.6392
X371.38 S1.0000
X371.58 S0.9686
X371.78 S0.8157
X371.98 S0.3137
X372.18 S0.0431
X372.28 S0.0078
X380.28 S0.0000
X380.38 S0.0824
X380.58 S0.2314
X380.78 S0.7059
X380.98 S0.9961
X381.98 S1.0000
X382.18 S0.9804
X382.38 S0.9059
X382.58 S0.7216
X382.78 S0.5569
X382.98 S0.4039
X383.18 S0.2549
X383.58 S0.1098
X383.78 S0.1255
X383.98 S0.1804
X384.18 S0.2510
X384.38 S0.3373
X384.58 S0.4627
X384.78 S0.6039
X384.98 S0.7020
X385.18 S0.8039
X385.38 S0.8980
X385.58 S0.9608
X385.78 S0.9843
X385.98 S0.9961
X387.18 S1.0000
X387.38 S0.9529
X387.58 S0.8784
X387.68 S0.4353
X390.88 S0.0000
X390.98 S0.0235
X391.18 S0.1098
X391.38 S0.4000
X391.58 S0.6745
X391.78 S0.9294
X392.78 S1.0000
X392.98 S0.9804
X393.18 S0.9412
X393.38 S0.8588
X393.58 S0.7569
X393.78 S0.6196
X393.98 S0.4863
X394.18 S0.3843
X394.38 S0.2784
X394.58 S0.1569
X394.78 S0.0902
X394.98 S0.0549
X395.08 S0.0235
X395.48 S0.0000
X395.58 S0.0039
X395.78 S0.0431
X395.98 S0.1529
X396.18 S0.2314
X396.38 S0.2784
X396.58 S0.3843
X396.78 S0.5020
X396.98 S0.5804
X397.18 S0.6667
X397.38 S0.7922
X397.58 S0.8902
X397.78 S0.9608
X397.98 S0.9843
X398.18 S0.9882
X398.28 S0.4471
X401.08 S0.0000
X401.18 S0.4039
X401.38 S0.8392
X401.58 S0.9373
X402.38 S1.0000
X402.48 S0.5451
X408.08 S0.0000
X408.18 S0.0235
X408.38 S0.0627
X408.58 S0.4353
X408.78 S0.8667
X408.98 S0.9451
X409.78 S1.0000
X409.98 S0.8784
X410.18 S0.7137
X410.38 S0.4980
X410.78 S0.3294
X410.98 S0.3020
X411.18 S0.2392
X411.38 S0.1961
X411.58 S0.1686
X411.78 S0.1373
X411.98 S0.1020
X412.08 S0.0392
X414.08 S0.0000
X414.18 S0.0157
X414.38 S0.0392
X414.58 S0.4235
X414.78 S0.8627
X414.98 S0.9451
X415.78 S1.0000
X415.98 S0.9725
X416.18 S0.9412
X416.38 S0.6824
X416.58 S0.4667
X416.78 S0.3765
X416.98 S0.2706
X417.18 S0.1451
X417.38 S0.0902
X417.58 S0.0588
X417.78 S0.0275
X417.98 S0.0118
X418.18 S0.0745
X418.38 S0.1373
X418.58 S0.2000
X418.78 S0.3176
X418.98 S0.4667
X419.18 S0.5686
X419.38 S0.6667
X419.58 S0.7882
X419.78 S0.8941
X419.98 S0.9686
X420.18 S0.9961
X421.78 S1.0000
X421.88 S0.5529
X424.28 S0.0000
X424.38 S0.2196
X424.58 S0.7216
X424.78 S0.9255
X424.98 S0.9882
X425.18 S0.9765
X425.38 S0.9569
X425.58 S0.9216
X425.78 S0.8588
X425.98 S0.7490
X426.18 S0.6431
X426.38 S0.5373
X426.58 S0.4627
X426.78 S0.3882
X426.98 S0.2824
X427.18 S0.1882
X427.38 S0.1333
X427.58 S0.0863
X427.78 S0.0471
X427.98 S0.0196
X428.18 S0.0039
X428.38 S0.0745
X428.58 S0.1412
X428.78 S0.1922
X428.98 S0.2745
X429.18 S0.3804
X429.38 S0.5412
X429.58 S0.7176
X429.78 S0.8667
X429.98 S0.9843
X430.18 S0.9961
X430.58 S1.0000
X430.78 S0.9137
X430.98 S0.7922
X431.18 S0.4275
X431.38 S0.0902
X431.48 S0.0353
Y29.07 S0.0000
X431.38 S0.1176
X431.18 S0.3098
X430.98 S0.6275
X430.78 S0.9451
X430.58 S0.9765
X430.18 S1.0000
X429.98 S0.9804
X429.78 S0.9490
X429.58 S0.6667
X429.38 S0.3255
X429.18 S0.2000
X428.98 S0.0980
X428.78 S0.0706
X428.58 S0.0510
X428.38 S0.0353
X428.28 S0.0196
X427.88 S0.0000
X427.78 S0.0039
X427.58 S0.0118
X427.38 S0.0235
X427.18 S0.0353
X426.98 S0.0510
X426.78 S0.0745
X426.58 S0.1020
X426.38 S0.1216
X426.18 S0.1412
X425.98 S0.1843
X425.78 S0.3059
X425.58 S0.5647
X425.38 S0.7373
X425.18 S0.8588
X424.98 S0.9255
X424.78 S0.9725
X424.58 S0.9137
X424.38 S0.7176
X424.28 S0.2196
X421.88 S0.0000
X421.78 S0.5529
X420.18 S1.0000
X419.98 S0.9922
X419.78 S0.8902
X419.58 S0.6392
X419.38 S0.4118
X419.18 S0.1961
X418.98 S0.1490
X418.78 S0.1216
X418.58 S0.0824
X418.38 S0.0510
X418.18 S0.0353
X417.98 S0.0196
X417.78 S0.0039
X417.58 S0.0078
X417.38 S0.0157
X417.18 S0.0235
X416.98 S0.0392
X416.78 S0.0706
X416.58 S0.0980
X416.38 S0.1216
X416.18 S0.4157
X415.98 S0.7961
X415.78 S0.9137
X414.98 S1.0000
X414.78 S0.9843
X414.58 S0.9647
X414.38 S0.5294
X414.18 S0.1294
X414.08 S0.0471
X412.08 S0.0000
X411.98 S0.0078
X411.78 S0.0275
X411.58 S0.0353
X411.38 S0.0431
X411.18 S0.0510
X410.98 S0.0627
X410.78 S0.0784
X410.38 S0.0863
X410.18 S0.3137
X409.98 S0.6078
X409.78 S0.8314
X408.98 S1.0000
X408.78 S0.9843
X408.58 S0.9647
X408.38 S0.5765
X408.18 S0.2157
X408.08 S0.0784
X402.48 S0.0000
X402.38 S0.5451
X401.58 S1.0000
X401.38 S0.9373
X401.18 S0.8392
X401.08 S0.4039
X398.28 S0.0000
X398.18 S0.4392
X397.98 S0.9647
X397.78 S0.9412
X397.58 S0.8627
X397.38 S0.6235
X397.18 S0.4157
X396.98 S0.2353
X396.78 S0.1647
X396.58 S0.1294
X396.38 S0.0980
X396.18 S0.0706
X395.98 S0.0588
X395.78 S0.0392
X395.68 S0.0118
X395.08 S0.0000
X394.98 S0.0078
X394.78 S0.0157
X394.58 S0.0235
X394.38 S0.0392
X394.18 S0.0706
X393.98 S0.1020
X393.78 S0.1255
X393.58 S0.2000
X393.38 S0.2980
X393.18 S0.5686
X392.98 S0.7961
X392.78 S0.9412
X391.78 S1.0000
X391.58 S0.9765
X391.38 S0.8980
X391.18 S0.6471
X390.98 S0.2353
X390.88 S0.0784
X387.68 S0.0000
X387.58 S0.4353
X387.38 S0.8784
X387.18 S0.9529
X385.98 S1.0000
X385.78 S0.9843
X385.58 S0.9490
X385.38 S0.8627
X385.18 S0.6510
X384.98 S0.3255
X384.78 S0.2078
X384.58 S0.1569
X384.38 S0.1216
X384.18 S0.0863
X383.98 S0.0667
X383.78 S0.0471
X383.58 S0.0314
X383.18 S0.0275
X382.98 S0.0667
X382.78 S0.1098
X382.58 S0.1647
X382.38 S0.3647
X382.18 S0.7608
X381.98 S0.9333
X381.78 S0.9922
X380.78 S1.0000
X380.58 S0.7451
X380.38 S0.3255
X380.28 S0.1373
X372.28 S0.0000
X372.18 S0.0078
X371.98 S0.0431
X371.78 S0.3137
X371.58 S0.8157
X371.38 S0.9686
X370.18 S1.0000
X369.98 S0.6392
X369.78 S0.1137
X369.68 S0.0353
X360.88 S0.0000
X360.78 S0.4196
X360.58 S0.8980
X360.38 S0.9569
X359.58 S1.0000
X359.48 S0.5608
X356.68 S0.0000
X356.58 S0.0510
X356.38 S0.1255
X356.18 S0.4353
X355.98 S0.7490
X355.78 S0.9020
X354.98 S1.0000
X354.78 S0.9765
X354.58 S0.9412
X354.38 S0.8078
X354.18 S0.6039
X353.98 S0.2353
X353.78 S0.0471
X353.68 S0.0078
X351.48 S0.0000
X351.38 S0.0118
X351.18 S0.0745
X350.98 S0.3294
X350.78 S0.8314
X350.58 S0.9961
X350.18 S1.0000
X349.98 S0.9843
X349.78 S0.8667
X349.58 S0.6235
X349.48 S0.1725
X346.88 S0.0000
X346.78 S0.0118
X346.58 S0.0510
X346.38 S0.3255
X346.18 S0.8314
X345.98 S0.9765
X344.38 S1.0000
X344.18 S0.9373
X343.98 S0.8431
X343.78 S0.5882
X343.58 S0.3725
X343.38 S0.2118
X343.18 S0.1333
X342.98 S0.0980
X342.78 S0.0745
X342.58 S0.0549
X342.38 S0.0392
X341.58 S0.0275
X341.38 S0.0627
X341.18 S0.1059
X340.98 S0.1804
X340.78 S0.3137
X340.58 S0.5961
X340.38 S0.8118
X340.18 S0.9647
X339.58 S1.0000
X339.38 S0.9961
X339.18 S0.9843
X338.98 S0.7882
X338.78 S0.3804
X338.58 S0.1569
X338.48 S0.0078
X336.68 S0.0000
X336.58 S0.0039
X336.38 S0.0510
X336.18 S0.2667
X335.98 S0.7882
X335.38 S1.0000
X335.18 S0.9922
X334.98 S0.8863
X334.78 S0.6745
X334.68 S0.2157
X330.68 S0.0000
X330.58 S0.0039
X330.38 S0.0510
X330.18 S0.2706
X329.98 S0.7961
X329.38 S1.0000
X329.18 S0.9922
X328.98 S0.8863
X328.78 S0.6706
X328.68 S0.2078
X324.68 S0.0000
X324.58 S0.0118
X324.38 S0.0980
X324.18 S0.3333
X323.98 S0.8196
X323.38 S1.0000
X323.18 S0.9961
X322.98 S0.9451
X322.78 S0.7412
X322.68 S0.2235
X247.08 S0.0000
X246.98 S0.0118
X246.78 S0.1412
X246.58 S0.3725
X246.38 S0.8118
X245.78 S1.0000
X245.58 S0.9882
X245.38 S0.6392
X245.18 S0.3255
X245.08 S0.1059
X243.88 S0.0000
X243.78 S0.0196
X243.58 S0.1098
X243.38 S0.3765
X243.18 S0.8510
X242.78 S1.0000
X242.58 S0.9922
X242.38 S0.8941
X242.28 S0.3373
X241.08 S0.0000
X240.98 S0.0196
X240.78 S0.2039
X240.58 S0.4510
X240.38 S0.8235
X240.18 S0.9843
X239.98 S0.9961
X239.78 S0.7843
X239.58 S0.5176
X239.38 S0.2235
X239.18 S0.0118
X239.08 S0.0039
X237.48 S0.0000
X237.38 S0.1451
X237.18 S0.4510
X236.98 S0.7216
X236.78 S0.9843
X236.58 S1.0000
X236.38 S0.9765
X236.18 S0.8392
X235.98 S0.5843
X235.88 S0.1529
X233.88 S0.0000
X233.78 S0.1961
X233.58 S0.4353
X233.38 S0.7451
X233.18 S0.9686
X232.98 S0.9882
X232.78 S0.9647
X232.58 S0.8941
X232.38 S0.5333
X232.18 S0.0863
X232.08 S0.0353
X231.48 S0.0000
X231.38 S0.0196
X231.18 S0.0627
X230.98 S0.4353
X230.78 S0.9412
X230.58 S0.9843
X229.78 S1.0000
X229.58 S0.7294
X229.38 S0.3176
X229.28 S0.1373
X227.68 S0.0000
X227.58 S0.0118
X227.38 S0.1412
X227.18 S0.3686
X226.98 S0.8039
X226.38 S1.0000
X226.18 S0.9882
X225.98 S0.4941
X225.78 S0.1059
X225.68 S0.0353
X223.68 S0.0000
X223.58 S0.0902
X223.38 S0.2275
X223.18 S0.6314
X222.38 S1.0000
X222.18 S0.6784
X221.98 S0.1569
X221.88 S0.0392
X220.48 S0.0000
X220.38 S0.0980
X220.18 S0.2353
X219.98 S0.6431
X219.78 S0.9490
X219.58 S0.9843
X219.38 S0.9686
X219.18 S0.9098
X218.98 S0.5451
X218.78 S0.0824
X218.68 S0.0314
X217.08 S0.0000
X216.98 S0.0196
X216.78 S0.1294
X216.58 S0.3765
X216.38 S0.8353
X215.98 S1.0000
X215.78 S0.9020
X215.58 S0.7529
X215.48 S0.2980
X213.88 S0.0000
X213.78 S0.0510
X213.58 S0.2314
X213.38 S0.5216
X213.18 S0.9059
X212.58 S1.0000
X212.38 S0.8745
X212.18 S0.3176
X211.98 S0.0118
X211.88 S0.0039
X210.68 S0.0000
X210.58 S0.1529
X210.38 S0.5294
X210.18 S0.7843
X209.98 S0.9765
X209.78 S1.0000
X209.58 S0.9804
X209.38 S0.8235
X209.18 S0.5765
X209.08 S0.1647
X203.88 S0.0000
X203.78 S0.0196
X203.58 S0.1137
X203.38 S0.6549
X202.78 S1.0000
X202.58 S0.9961
X202.38 S0.6000
X202.18 S0.1569
X202.08 S0.0627
X194.48 S0.0000
X194.38 S0.0039
X194.18 S0.0235
X193.98 S0.1843
X193.78 S0.4824
X193.58 S0.7451
X193.38 S0.9961
X193.18 S1.0000
X192.98 S0.9569
X192.78 S0.7529
X192.58 S0.4784
X192.48 S0.1137
X190.48 S0.0000
X190.38 S0.0275
X190.18 S0.1137
X189.98 S0.6471
X189.58 S1.0000
X189.38 S0.8902
X189.18 S0.6980
X189.08 S0.3569
X187.28 S0.0000
X187.18 S0.1020
X186.98 S0.2863
X186.78 S0.7490
X185.98 S1.0000
X185.78 S0.5137
X185.58 S0.0745
X185.48 S0.0275
X184.28 S0.0000
X184.18 S0.0196
X183.98 S0.1882
X183.78 S0.4353
X183.58 S0.8392
X182.98 S1.0000
X182.78 S0.9647
X182.68 S0.4000
X180.68 S0.0000
X180.58 S0.0627
X180.38 S0.1882
X180.18 S0.5373
X179.98 S0.9765
X179.78 S1.0000
X179.58 S0.9490
X179.38 S0.6824
X179.18 S0.4000
X179.08 S0.1020
X177.48 S0.0000
X177.38 S0.0157
X177.18 S0.0353
X176.98 S0.4941
X176.78 S0.9922
X176.38 S0.9961
X176.18 S0.9922
X175.98 S0.6863
X175.78 S0.1412
X175.68 S0.0157
X173.88 S0.0000
X173.78 S0.4863
X173.58 S0.9020
X173.38 S0.9647
X173.18 S0.9922
X172.98 S0.9686
X172.78 S0.6000
X172.58 S0.0627
X172.48 S0.0078
X170.88 S0.0000
X170.78 S0.0039
X170.58 S0.0549
X170.38 S0.1647
X170.18 S0.4039
X169.98 S0.3451
X169.88 S0.0588
X168.28 S0.0000
X168.18 S0.0118
X167.98 S0.0275
X167.78 S0.5647
X167.38 S1.0000
X167.18 S0.8980
X166.98 S0.6706
X166.78 S0.3647
X166.68 S0.0275
X164.08 S0.0000
X163.98 S0.0235
X163.78 S0.0627
X163.58 S0.4863
X163.38 S0.9725
X163.18 S0.9882
X162.38 S1.0000
X162.18 S0.7059
X161.98 S0.3216
X161.88 S0.1373
X158.08 S0.0000
X157.98 S0.0118
X157.78 S0.0314
X157.58 S0.2353
X157.38 S0.4784
X157.18 S0.7843
X156.98 S0.9961
X156.78 S0.9843
X156.58 S0.7961
X156.38 S0.4549
X156.28 S0.2118
X154.88 S0.0000
X154.78 S0.1098
X154.58 S0.2588
X154.38 S0.6471
X154.18 S0.9725
X153.98 S0.9922
X153.78 S0.8275
X153.58 S0.4275
X153.38 S0.1804
X153.28 S0.0157
X151.08 S0.0000
X150.98 S0.1765
X150.78 S0.7412
X150.38 S1.0000
X150.18 S0.9882
X149.98 S0.9647
X149.88 S0.4118
X148.28 S0.0000
X148.18 S0.0275
X147.98 S0.1725
X147.78 S0.4431
X147.58 S0.8627
X146.98 S1.0000
X146.78 S0.9294
X146.58 S0.4471
X146.38 S0.1176
X146.28 S0.0314
X144.68 S0.0000
X144.58 S0.0431
X144.38 S0.1137
X144.18 S0.5137
X143.98 S0.9804
X143.78 S0.9922
X143.58 S0.9961
X143.38 S0.9882
X143.18 S0.6980
X143.08 S0.1412
X141.08 S0.0000
X140.98 S0.1843
X140.78 S0.4118
X140.58 S0.7765
X139.78 S1.0000
X139.58 S0.6941
X139.38 S0.3569
X139.28 S0.1412
X137.28 S0.0000
X137.18 S0.1137
X136.98 S0.3333
X136.78 S0.6471
X136.58 S0.9922
X136.38 S0.7490
X136.18 S0.4941
X135.98 S0.1922
X135.78 S0.0235
X135.68 S0.0039
X133.08 S0.0000
X132.98 S0.0039
X132.78 S0.0157
X132.58 S0.2784
X132.38 S0.7137
X132.18 S0.8863
X131.98 S1.0000
X131.78 S0.9882
X131.58 S0.9059
X131.38 S0.6471
X131.18 S0.3686
X131.08 S0.0667
Y29.27 S0.0000
X131.18 S0.0941
X131.38 S0.5059
X131.58 S0.7961
X131.78 S0.9529
X132.18 S1.0000
X132.38 S0.8235
X132.58 S0.6039
X132.68 S0.2235
X136.08 S0.0000
X136.18 S0.1255
X136.38 S0.3569
X136.58 S0.6667
X136.78 S1.0000
X136.98 S0.7647
X137.18 S0.5059
X137.28 S0.1725
X139.28 S0.0000
X139.38 S0.1412
X139.58 S0.3569
X139.78 S0.6941
X140.58 S1.0000
X140.78 S0.7569
X140.98 S0.3529
X141.08 S0.1529
X143.08 S0.0000
X143.18 S0.1373
X143.38 S0.6745
X143.58 S0.9647
X143.78 S0.9922
X143.98 S0.9843
X144.18 S0.9647
X144.38 S0.4824
X144.58 S0.0784
X144.68 S0.0275
X146.28 S0.0000
X146.38 S0.0235
X146.58 S0.0902
X146.78 S0.4235
X146.98 S0.9255
X147.58 S1.0000
X147.78 S0.8549
X147.98 S0.4000
X148.18 S0.1373
X148.28 S0.0235
X149.88 S0.0000
X149.98 S0.4235
X150.18 S0.9882
X150.78 S1.0000
X150.98 S0.7412
X151.08 S0.1765
X153.28 S0.0000
X153.38 S0.0078
X153.58 S0.0745
X153.78 S0.2902
X153.98 S0.7882
X154.38 S1.0000
X154.58 S0.7961
X154.78 S0.5451
X154.88 S0.2275
X156.28 S0.0000
X156.38 S0.3451
X156.58 S0.6588
X156.78 S0.8824
X157.18 S1.0000
X157.38 S0.6863
X157.58 S0.2431
X157.68 S0.1020
X161.88 S0.0000
X161.98 S0.1373
X162.18 S0.3216
X162.38 S0.7059
X163.18 S1.0000
X163.38 S0.9843
X163.58 S0.9647
X163.78 S0.4824
X163.98 S0.0588
X164.08 S0.0235
X166.68 S0.0000
X166.78 S0.0314
X166.98 S0.4196
X167.18 S0.7451
X167.38 S0.9216
X167.58 S0.9922
X167.78 S0.9765
X167.88 S0.5373
X169.88 S0.0000
X169.98 S0.0353
X170.18 S0.2078
X170.38 S0.2314
X170.48 S0.0549
X172.48 S0.0000
X172.58 S0.0902
X172.78 S0.2275
X172.98 S0.6706
X173.18 S0.9765
X173.38 S0.9922
X173.58 S0.9608
X173.78 S0.8980
X173.88 S0.4824
X175.88 S0.0000
X175.98 S0.1176
X176.18 S0.6588
X176.38 S0.9686
X176.78 S0.9922
X176.98 S0.9804
X177.18 S0.4863
X177.38 S0.0314
X177.48 S0.0118
X179.08 S0.0000
X179.18 S0.1216
X179.38 S0.4824
X179.58 S0.7569
X179.78 S0.9608
X179.98 S0.9961
X180.18 S0.9686
X180.38 S0.4863
X180.58 S0.1216
X180.68 S0.0392
X182.68 S0.0000
X182.78 S0.3686
X182.98 S0.8941
X183.18 S0.9647
X183.58 S1.0000
X183.78 S0.8157
X183.98 S0.3569
X184.18 S0.1255
X184.28 S0.0118
X185.48 S0.0000
X185.58 S0.0235
X185.78 S0.0667
X185.98 S0.5098
X186.78 S1.0000
X186.98 S0.7451
X187.18 S0.2706
X187.28 S0.0902
X189.08 S0.0000
X189.18 S0.3843
X189.38 S0.7412
X189.58 S0.9059
X189.98 S1.0000
X190.18 S0.6235
X190.28 S0.0588
X192.48 S0.0000
X192.58 S0.1373
X192.78 S0.5804
X192.98 S0.8471
X193.18 S0.9725
X193.38 S0.9922
X193.58 S0.9725
X193.78 S0.6000
X193.98 S0.2784
X194.08 S0.0941
X202.08 S0.0000
X202.18 S0.0549
X202.38 S0.1373
X202.58 S0.5882
X202.78 S0.9961
X203.38 S1.0000
X203.58 S0.6392
X203.68 S0.0745
X209.08 S0.0000
X209.18 S0.1725
X209.38 S0.6078
X209.58 S0.8471
X209.78 S0.9843
X209.98 S1.0000
X210.18 S0.9686
X210.38 S0.6980
X210.58 S0.4196
X210.68 S0.1216
X212.28 S0.0000
X212.38 S0.3059
X212.58 S0.8706
X213.18 S1.0000
X213.38 S0.9020
X213.58 S0.4902
X213.78 S0.2000
X213.88 S0.0431
X215.48 S0.0000
X215.58 S0.3294
X215.78 S0.8314
X215.98 S0.9412
X216.38 S1.0000
X216.58 S0.8275
X216.78 S0.3490
X216.98 S0.1098
X217.08 S0.0157
X218.88 S0.0000
X218.98 S0.0078
X219.18 S0.3725
X219.38 S0.6941
X219.58 S0.8980
X219.98 S1.0000
X220.18 S0.7765
X220.38 S0.4706
X220.48 S0.2078
X221.88 S0.0000
X221.98 S0.0157
X222.18 S0.1059
X222.38 S0.6471
X222.58 S0.9843
X222.78 S0.9961
X223.18 S1.0000
X223.38 S0.5725
X223.58 S0.1098
X223.68 S0.0431
X225.68 S0.0000
X225.78 S0.0314
X225.98 S0.0941
X226.18 S0.4863
X226.38 S0.9882
X226.98 S1.0000
X227.18 S0.7922
X227.38 S0.3333
X227.58 S0.1176
X227.68 S0.0078
X229.28 S0.0000
X229.38 S0.0980
X229.58 S0.2471
X229.78 S0.6980
X230.58 S1.0000
X230.78 S0.9882
X230.98 S0.9529
X231.18 S0.4471
X231.38 S0.0706
X231.48 S0.0235
X232.08 S0.0000
X232.18 S0.1216
X232.38 S0.2784
X232.58 S0.6784
X232.78 S0.9882
X232.98 S0.9961
X233.18 S0.9451
X233.38 S0.8275
X233.58 S0.5529
X233.78 S0.2118
X233.88 S0.0902
X235.48 S0.0000
X235.58 S0.0078
X235.78 S0.0941
X235.98 S0.2980
X236.18 S0.7255
X236.38 S0.9333
X236.58 S0.9882
X236.78 S1.0000
X236.98 S0.9765
X237.18 S0.6157
X237.38 S0.2980
X237.48 S0.0941
X239.48 S0.0000
X239.58 S0.1412
X239.78 S0.3373
X239.98 S0.6980
X240.38 S1.0000
X240.58 S0.8745
X240.78 S0.5686
X240.98 S0.2902
X241.08 S0.0275
X242.28 S0.0000
X242.38 S0.3255
X242.58 S0.8588
X242.78 S0.9725
X243.18 S1.0000
X243.38 S0.8471
X243.58 S0.3569
X243.78 S0.0902
X243.88 S0.0157
X245.08 S0.0000
X245.18 S0.0706
X245.38 S0.2196
X245.58 S0.5647
X245.78 S0.9843
X246.38 S1.0000
X246.58 S0.8000
X246.78 S0.3412
X246.98 S0.1176
X247.08 S0.0078
X322.68 S0.0000
X322.78 S0.2235
X322.98 S0.7412
X323.18 S0.9451
X323.38 S0.9961
X323.98 S1.0000
X324.18 S0.8196
X324.38 S0.3333
X324.58 S0.0980
X324.68 S0.0118
X328.68 S0.0000
X328.78 S0.2078
X328.98 S0.6706
X329.18 S0.8863
X329.38 S0.9922
X329.98 S1.0000
X330.18 S0.7961
X330.38 S0.2706
X330.58 S0.0510
X330.68 S0.0039
X334.68 S0.0000
X334.78 S0.2235
X334.98 S0.7020
X335.18 S0.9059
X335.38 S0.9961
X335.98 S1.0000
X336.18 S0.7882
X336.38 S0.2667
X336.58 S0.0510
X336.68 S0.0039
X338.48 S0.0000
X338.58 S0.0157
X338.78 S0.2863
X338.98 S0.5647
X339.18 S0.8627
X339.98 S1.0000
X340.18 S0.9882
X340.38 S0.9020
X340.58 S0.5961
X340.78 S0.3294
X340.98 S0.1098
X341.08 S0.0314
X343.48 S0.0000
X343.58 S0.0392
X343.78 S0.1451
X343.98 S0.3098
X344.18 S0.5137
X344.38 S0.6275
X344.58 S0.7294
X344.78 S0.8902
X345.98 S1.0000
X346.18 S0.9765
X346.38 S0.8314
X346.58 S0.3294
X346.78 S0.0549
X346.88 S0.0118
X349.48 S0.0000
X349.58 S0.1765
X349.78 S0.6431
X349.98 S0.8824
X350.18 S0.9843
X350.58 S1.0000
X350.78 S0.9961
X350.98 S0.8314
X351.18 S0.3294
X351.38 S0.0745
X351.48 S0.0118
X353.48 S0.0000
X353.58 S0.0118
X353.78 S0.0667
X353.98 S0.2784
X354.18 S0.5255
X354.38 S0.8235
X354.58 S0.9490
X354.78 S0.9961
X355.38 S1.0000
X355.58 S0.9725
X355.78 S0.8980
X355.98 S0.7098
X356.18 S0.4588
X356.28 S0.2157
X359.48 S0.0000
X359.58 S0.5608
X360.38 S1.0000
X360.58 S0.9569
X360.78 S0.8980
X360.88 S0.4196
X369.68 S0.0000
X369.78 S0.0353
X369.98 S0.1137
X370.18 S0.6392
X371.38 S1.0000
X371.58 S0.9686
X371.78 S0.8157
X371.98 S0.3137
X372.18 S0.0431
X372.28 S0.0078
X380.28 S0.0000
X380.38 S0.2157
X380.58 S0.4667
X380.78 S0.8000
X381.58 S1.0000
X381.78 S0.9765
X381.98 S0.9294
X382.18 S0.7059
X382.38 S0.4549
X382.58 S0.1529
X382.78 S0.0157
X382.88 S0.0039
X384.88 S0.0000
X384.98 S0.0235
X385.18 S0.0980
